!!!!SEGMENT: pl-wtm--r-1552--007_stefani-jozef--missa-no-13-benedictus.krn
!!!cenid: 18xx:1818
!!!COM: Stefani, Józef
!!!COM-rismID: pe30024097
!!!CDT: 1800/04/16-1876/03/19
!!!CNT: Polish
!!!OPR: Missa No 13
!!!OTL: Benedictus
!!!OMV: 007
!!!PDT:
!!!AGN: Sacred; Mass
!!!OMD: Andantino.
!!!SMS-siglum: PL-Wtm
!!!SMS-shelfmark: R 1552
!!!SMS-shelfwork: 001-007 M
!!!SMS-variant:
!!!SMS-altvar:
!!!NIFC-rismSourceID: 1001115180
!!!NIFC-rismChildID: 1001115180
!!!NIFC-islandoraID: pl-wtm:26719
!!!URL-pdf-islandora: https://repozytorium.nifc.pl/islandora/object/pl-wtm%3A26719/datastream/PDF/view
!!!URL-scan: https://polish.musicsources.pl/pl/lokalizacje/galeria/rekopisy/6353 @EN{Scan on Polish Music Sources Website} @PL{Skany w portalu Dziedzictwo Muzyki Polskiej w otwartym dostępie}
!!!IIIF:
!!!ONB-nifc: UWAGA: części Mszy: 1. Kyrie, 2. Gloria, 3. Graduale, 4. Credo, 5. Offertorium, 6. Sanctus, 7. Benedictus, 8. Agnus Dei
!!!system-decoration: {g1,s3,s4}{s5,s6}{(s7,g2,s10,s11,s12)}{(s13,s14)}
!!!AIN: 1 cbass 1 cello 5 empty 1 organ 1 soprn 2 tenor 1 viola 1 violn
!!!key:
**kern	**kern	**kern	**dynam	**kern	**dynam	**kern	**dynam	**kern	**dynam	**kern	**dynam	**kern	**dynam	**kern	**text	**kern	**dynam	**kern	**text	**dynam	**kern	**text	**dynam	**kern	**kern	**text	**dynam
*	*	*	*	*	*	*	*	*group2	*group2	*group2	*group2	*	*	*	*	*	*	*	*	*	*	*	*	*group1	*group1	*group1	*group1
*part13	*part13	*part12	*part12	*part11	*part11	*part10	*part10	*part9	*part9	*part8	*part8	*part7	*part7	*part6	*part6	*part5	*part5	*part4	*part4	*part4	*part3	*	*part3	*part2	*part1	*part1	*part1
*staff14	*staff13	*staff12	*	*staff11	*	*staff10	*	*staff9	*	*staff8	*	*staff7	*	*staff6	*staff6	*staff5	*	*staff4	*staff4	*	*staff3	*	*	*staff2	*staff1	*staff1	*
*	*	*	*	*	*	*	*	*""Violini repieno	*	*""Violini repieno	*	*	*	*	*	*	*	*	*	*	*	*	*	*""Soprani	*""Soprani	*""Soprani	*""Soprani
*Iorgan	*Iempty	*Icbass	*	*Icello	*	*Iviola	*	*Iempty	*	*Iempty	*	*Ivioln	*	*Itenor	*	*Isoprn	*	*Iempty	*	*	*Itenor	*	*	*Iempty	*Iempty	*	*
*I"Organo	*	*I"C: Baſsi	*	*I"Violoncello	*	*I"Viole	*	*	*	*	*	*I"Solo Violino	*	*I"Tenori Baſsi	*	*I"Soprani	*	*I"Baſso	*	*	*I"Tenore	*	*	*	*	*	*
*	*	*	*	*	*	*	*	*'' vl rip	*	*'' vl rip	*	*	*	*	*	*	*	*	*	*	*	*	*	*''S	*''S	*''S	*''S
*I'Org.	*	*I'cb	*	*I'vlc	*	*I'vla	*	*	*	*	*	*I'vl solo	*	*I'Coro T Coro B	*	*I'Coro S	*	*I'B	*	*	*I'T	*	*	*	*	*	*
*clefF4	*clefG2	*clefF4	*	*clefF4	*	*clefC3	*	*clefG2	*	*clefG2	*	*clefG2	*	*clefF4	*	*clefG2	*	*clefF4	*	*	*clefC4	*	*	*clefG2	*clefG2	*	*
*	*	*Trd0c0	*	*	*	*	*	*	*	*	*	*	*	*	*	*	*	*	*	*	*	*	*	*	*	*	*
*k[f#c#g#]	*k[f#c#g#]	*k[f#c#g#]	*	*k[f#c#g#]	*	*k[f#c#g#]	*	*k[f#c#g#]	*	*k[f#c#g#]	*	*k[f#c#g#]	*	*k[f#c#g#]	*	*k[f#c#g#]	*	*k[f#c#g#]	*	*	*k[f#c#g#]	*	*	*k[f#c#g#]	*k[f#c#g#]	*	*
*A:	*A:	*A:	*	*A:	*	*A:	*	*A:	*	*A:	*	*A:	*	*A:	*	*A:	*	*A:	*	*	*A:	*	*	*A:	*A:	*	*
*M4/4	*M4/4	*M4/4	*	*M4/4	*	*M4/4	*	*M4/4	*	*M4/4	*	*M4/4	*	*M4/4	*	*M4/4	*	*M4/4	*	*	*M4/4	*	*	*M4/4	*M4/4	*	*
*met(c)	*met(c)	*met(c)	*	*met(c)	*	*met(c)	*	*met(c)	*	*met(c)	*	*met(c)	*	*met(c)	*	*met(c)	*	*met(c)	*	*	*met(c)	*	*	*met(c)	*met(c)	*	*
4r	4e/	4r	.	4ryy	.	4r	.	4r	.	4e/	.	4ee\	.	4ryy	.	4ryy	.	4ryy	.	.	4ryy	.	.	4ryy	4ryy	.	.
=1	=1	=1	=1	=1	=1	=1	=1	=1	=1	=1	=1	=1	=1	=1	=1	=1	=1	=1	=1	=1	=1	=1	=1	=1	=1	=1	=1
*^	*^	*	*	*	*	*	*	*	*	*	*	*	*	*	*	*	*	*	*	*	*	*	*	*	*	*	*
!	!	!	!	!	!	!	!	!	!LO:DY:rj	!	!LO:DY:rj	!	!	!	!	!	!	!	!	!	!	!	!	!	!	!	!	!	!
*	*	*	*2\right	*	*	*	*	*	*	*	*	*	*	*	*	*	*	*	*	*	*	*	*	*	*	*	*	*	*
!	!	!	!	!	!	!	!	!	!	!	!	!	!	!	!	!	!	!	!	!	!	!	!	!	!	!	!LO:TX:t=P:problem=nazwy instrumentów i system decoration wg skanu 21	!	!
2A/	4.AA\	4.cc#/	2e\	4.AA/	.	1ryy	.	2A/	p	2e/	p	4.cc#\	.	4.ccc#\	.	1ryy	.	1ryy	.	1ryy	.	.	1ryy	.	.	1ryy	1ryy	.	.
.	8C#\	8a/	.	8C#/	.	.	.	.	.	.	.	8a/	.	8aa\	.	.	.	.	.	.	.	.	.	.	.	.	.	.	.
2B/	4D\	4f#/	2d\	4D/	.	.	.	2B/	.	2d/	.	4f#/	.	4ff#\	.	.	.	.	.	.	.	.	.	.	.	.	.	.	.
.	4BB\	4b/	.	4BB/	.	.	.	.	.	.	.	4dd\	.	4ddd\	.	.	.	.	.	.	.	.	.	.	.	.	.	.	.
=2	=2	=2	=2	=2	=2	=2	=2	=2	=2	=2	=2	=2	=2	=2	=2	=2	=2	=2	=2	=2	=2	=2	=2	=2	=2	=2	=2	=2	=2
*	*2\right	*	*	*2\right	*	*	*	*	*	*	*	*	*	*2\right	*	*	*	*	*	*	*	*	*	*	*	*	*	*	*
1ryy	2B 2E\	2g#t/	2d\	2E\	.	1ryy	.	(2B/	.	(2d/	.	2g#t/	.	2gg#t\	.	1ryy	.	1ryy	.	1ryy	.	.	1ryy	.	.	1ryy	1ryy	.	.
.	.	(16qqf#/LL	.	.	.	.	.	.	.	.	.	(16qqf#/LL	.	(16qqff#/LL	.	.	.	.	.	.	.	.	.	.	.	.	.	.	.
.	.	16qqg#/JJ)	.	.	.	.	.	.	.	.	.	16qqg#/JJ)	.	16qqgg#/JJ)	.	.	.	.	.	.	.	.	.	.	.	.	.	.	.
.	8.A\L	8.aL 8.c#/	2ryy	8A\L	.	.	.	8A/L)	.	8c#/L)	.	8a/L	.	8.aa\L	.	.	.	.	.	.	.	.	.	.	.	.	.	.	.
.	.	.	.	16r	.	.	.	16r	.	16r	.	16r	.	.	.	.	.	.	.	.	.	.	.	.	.	.	.	.	.
.	16e 16c#\	16a/K	.	16c#\K	.	.	.	16c#/K	.	16e/K	.	16a/K	.	16aa'\K	.	.	.	.	.	.	.	.	.	.	.	.	.	.	.
.	8.e 8.B\	8.b 8.g#/	.	8.B\	.	.	.	8.B/	.	8.e/	.	8.g#/	.	8.bb'\	.	.	.	.	.	.	.	.	.	.	.	.	.	.	.
.	16eJ 16A\	16cc#Jk 16a/	.	16A\Jk	.	.	.	16A/Jk	.	16e/Jk	.	16a/Jk	.	16ccc#'\Jk	.	.	.	.	.	.	.	.	.	.	.	.	.	.	.
*v	*v	*	*	*	*	*	*	*	*	*	*	*	*	*	*	*	*	*	*	*	*	*	*	*	*	*	*	*	*
=3	=3	=3	=3	=3	=3	=3	=3	=3	=3	=3	=3	=3	=3	=3	=3	=3	=3	=3	=3	=3	=3	=3	=3	=3	=3	=3	=3	=3
8e 8B\	16cc#/LL	8g#\	8B\	.	1ryy	.	8B/	.	8e/	.	8g#/	.	(16ccc#\LL	.	1ryy	.	1ryy	.	1ryy	.	.	1ryy	.	.	1ryy	1ryy	.	.
.	16b/	.	.	.	.	.	.	.	.	.	.	.	16bb\	.	.	.	.	.	.	.	.	.	.	.	.	.	.	.
8rBB	16g#/	8r	8r	.	.	.	8r	.	8r	.	8r	.	16gg#\	.	.	.	.	.	.	.	.	.	.	.	.	.	.	.
.	16e/JJ	.	.	.	.	.	.	.	.	.	.	.	16ee\JJ)	.	.	.	.	.	.	.	.	.	.	.	.	.	.	.
4r	[4B/	4ryy	4r	.	.	.	4r	.	4r	.	4r	.	[4b\	.	.	.	.	.	.	.	.	.	.	.	.	.	.	.
4r	8.B/L]	4ryy	4r	.	.	.	4r	.	4r	.	4r	.	8.b\L]	.	.	.	.	.	.	.	.	.	.	.	.	.	.	.
.	16b/K	.	.	.	.	.	.	.	.	.	.	.	16gg#'\K	.	.	.	.	.	.	.	.	.	.	.	.	.	.	.
4A 4F# 4BB\	8.f#/	4d#X\	4BB/	.	.	.	4B 4F#/	.	4A/	.	(4d#X/	.	8.ff#'\	.	.	.	.	.	.	.	.	.	.	.	.	.	.	.
.	16b/Jk	.	.	.	.	.	.	.	.	.	.	.	16bb'\Jk	.	.	.	.	.	.	.	.	.	.	.	.	.	.	.
*	*v	*v	*	*	*	*	*	*	*	*	*	*	*	*	*	*	*	*	*	*	*	*	*	*	*	*	*	*
=4	=4	=4	=4	=4	=4	=4	=4	=4	=4	=4	=4	=4	=4	=4	=4	=4	=4	=4	=4	=4	=4	=4	=4	=4	=4	=4	=4
!!LO:LB:g=original
!	!	!	!	!	!	!	!	!	!	!LO:TX:t=P:problem=brak zakończenia łuku	!	!	!	!	!	!	!	!	!	!	!	!	!	!	!	!	!
8G# 8E\	16g#LL 16e/	8E\	.	1ryy	.	8B 8E/	.	8G#/	.	8e/)	.	(>16gg#\LL	.	1ryy	.	1ryy	.	1ryy	.	.	1ryy	.	.	1ryy	1ryy	.	.
.	16e/	.	.	.	.	.	.	.	.	.	.	16ee\	.	.	.	.	.	.	.	.	.	.	.	.	.	.	.
8r	16g#/	8r	.	.	.	8r	.	8r	.	8r	.	16gg#\	.	.	.	.	.	.	.	.	.	.	.	.	.	.	.
.	16b/JJ	.	.	.	.	.	.	.	.	.	.	16bb\JJ	.	.	.	.	.	.	.	.	.	.	.	.	.	.	.
!	!	!	!	!	!	!	!LO:DY:rj	!	!	!	!LO:DY:rj	!	!	!	!	!	!	!	!	!	!	!	!	!	!	!	!
*	*	*	*	*	*	*2\right	*	*	*	*2\right	*	*	*	*	*	*	*	*	*	*	*	*	*	*	*	*	*
2G# 2E\	2ee 2e/	2E\	.	.	.	2e\	f	2g# 2B/	.	2ee\	f	2eee\)	.	.	.	.	.	.	.	.	.	.	.	.	.	.	.
4r	4ee#X 4e#X/	4r	.	.	.	4r	.	4r	.	4ee#X^<\	.	4eee#X^<\	.	.	.	.	.	.	.	.	.	.	.	.	.	.	.
=5	=5	=5	=5	=5	=5	=5	=5	=5	=5	=5	=5	=5	=5	=5	=5	=5	=5	=5	=5	=5	=5	=5	=5	=5	=5	=5	=5
!	!	!	!	!	!	!	!LO:DY:rj	!	!LO:DY:rj	!	!	!	!	!	!	!	!	!	!	!	!	!	!	!	!	!	!
8D\L	8ff#\	8D\	.	1ryy	.	8r	p	8r	p	8ff#\	.	8fff#'\	.	1ryy	.	1ryy	.	1ryy	.	.	1ryy	.	.	1ryy	1ryy	.	.
8BJ 8F#\	4b\	8r	.	.	.	8F#/	.	8B/	.	4b'\	.	4bb'^<\	.	.	.	.	.	.	.	.	.	.	.	.	.	.	.
*rep	*	*	*	*	*	*	*	*	*	*	*	*	*	*	*	*	*	*	*	*	*	*	*	*	*	*	*
8D\L	.	8D\	.	.	.	8r	.	8r	.	.	.	.	.	.	.	.	.	.	.	.	.	.	.	.	.	.	.
8BJ 8F#\	16cc#\LL	8r	.	.	.	8F#/	.	8B/	.	16cc#'\LL	.	16ccc#'\LL	.	.	.	.	.	.	.	.	.	.	.	.	.	.	.
*Xrep	*	*	*	*	*	*	*	*	*	*	*	*	*	*	*	*	*	*	*	*	*	*	*	*	*	*	*
.	16dd\JJ	.	.	.	.	.	.	.	.	16dd'\JJ	.	16ddd'\JJ	.	.	.	.	.	.	.	.	.	.	.	.	.	.	.
8E\L	8ee\	8E\	.	.	.	8r	.	8r	.	8ee'\	.	8eee'\	.	.	.	.	.	.	.	.	.	.	.	.	.	.	.
8c#J 8A\	4a/	8r	.	.	.	8A/	.	8c#/	.	4a'/	.	4aa'^<\	.	.	.	.	.	.	.	.	.	.	.	.	.	.	.
*rep	*	*	*	*	*	*	*	*	*	*	*	*	*	*	*	*	*	*	*	*	*	*	*	*	*	*	*
8E\L	.	8E\	.	.	.	8r	.	8r	.	.	.	.	.	.	.	.	.	.	.	.	.	.	.	.	.	.	.
8c#J 8A\	16b\LL	8r	.	.	.	8A/	.	8c#/	.	16b'\LL	.	16bb'\LL	.	.	.	.	.	.	.	.	.	.	.	.	.	.	.
*Xrep	*	*	*	*	*	*	*	*	*	*	*	*	*	*	*	*	*	*	*	*	*	*	*	*	*	*	*
.	16cc#\JJ	.	.	.	.	.	.	.	.	16cc#'\JJ	.	16ccc#'\JJ	.	.	.	.	.	.	.	.	.	.	.	.	.	.	.
=6	=6	=6	=6	=6	=6	=6	=6	=6	=6	=6	=6	=6	=6	=6	=6	=6	=6	=6	=6	=6	=6	=6	=6	=6	=6	=6	=6
8E\L	(16ee\LL	8E\	.	1ryy	.	8r	.	8r	.	(16ee\LL	.	(16eee\LL	.	1ryy	.	1ryy	.	1ryy	.	.	1ryy	.	.	1ryy	1ryy	.	.
.	16dd\)	.	.	.	.	.	.	.	.	16dd\)	.	16ddd\)	.	.	.	.	.	.	.	.	.	.	.	.	.	.	.
8dJ 8G#\	(16dd\	8r	.	.	.	8G#/	.	8d/	.	(16dd\	.	(16ddd\	.	.	.	.	.	.	.	.	.	.	.	.	.	.	.
.	16cc#\JJ)	.	.	.	.	.	.	.	.	16cc#\JJ)	.	16ccc#\JJ)	.	.	.	.	.	.	.	.	.	.	.	.	.	.	.
*rep	*	*	*	*	*	*	*	*	*	*	*	*	*	*	*	*	*	*	*	*	*	*	*	*	*	*	*
8E\L	(16cc#\LL	8E\	.	.	.	8r	.	8r	.	(16cc#\LL	.	(16ccc#\LL	.	.	.	.	.	.	.	.	.	.	.	.	.	.	.
.	16b\)	.	.	.	.	.	.	.	.	16b\)	.	16bb\)	.	.	.	.	.	.	.	.	.	.	.	.	.	.	.
8dJ 8G#\	(16a#X\	8r	.	.	.	8G#/	.	8d/	.	(16a#X\	.	(16aa#X\	.	.	.	.	.	.	.	.	.	.	.	.	.	.	.
*Xrep	*	*	*	*	*	*	*	*	*	*	*	*	*	*	*	*	*	*	*	*	*	*	*	*	*	*	*
.	16b\JJ)	.	.	.	.	.	.	.	.	16b\JJ)	.	16bb\JJ)	.	.	.	.	.	.	.	.	.	.	.	.	.	.	.
!LO:TX:t=P:problem=mixed beam	!	!	!	!	!	!	!	!	!	!	!	!	!	!	!	!	!	!	!	!	!	!	!	!	!	!	!
8AA/L	8b#X\	8AA/	.	.	.	8r	.	8r	.	8b#X\	.	8bb#X'\	.	.	.	.	.	.	.	.	.	.	.	.	.	.	.
8c#J 8A 8E\	4cc#\	8r	.	.	.	8A/	.	8c#/	.	4cc#^<\	.	4ccc#'^<\	.	.	.	.	.	.	.	.	.	.	.	.	.	.	.
*rep	*	*	*	*	*	*	*	*	*	*	*	*	*	*	*	*	*	*	*	*	*	*	*	*	*	*	*
!LO:TX:t=P:problem=mixed beam	!	!	!	!	!	!	!	!	!	!	!	!	!	!	!	!	!	!	!	!	!	!	!	!	!	!	!
8AA/L	.	8AA/	.	.	.	8r	.	8r	.	.	.	.	.	.	.	.	.	.	.	.	.	.	.	.	.	.	.
8c#J 8A 8E\	16dd\LL	8r	.	.	.	8A/	.	8c#/	.	16dd'\LL	.	16ddd'\LL	.	.	.	.	.	.	.	.	.	.	.	.	.	.	.
*Xrep	*	*	*	*	*	*	*	*	*	*	*	*	*	*	*	*	*	*	*	*	*	*	*	*	*	*	*
.	16ee\JJ	.	.	.	.	.	.	.	.	16ee'\JJ	.	16eee'\JJ	.	.	.	.	.	.	.	.	.	.	.	.	.	.	.
=7	=7	=7	=7	=7	=7	=7	=7	=7	=7	=7	=7	=7	=7	=7	=7	=7	=7	=7	=7	=7	=7	=7	=7	=7	=7	=7	=7
!!LO:PB:g=original
8D\L	16gg#\LL	8D\	.	1ryy	.	8r	.	8r	.	16gg#'\LL	.	16ggg#'\LL	.	1ryy	.	1ryy	.	1ryy	.	.	1ryy	.	.	1ryy	1ryy	.	.
.	16ff#\JJ	.	.	.	.	.	.	.	.	16ff#'\JJ	.	16fff#'\JJ	.	.	.	.	.	.	.	.	.	.	.	.	.	.	.
8BJ 8F#\	4b\	8r	.	.	.	8F#/	.	8B/	.	4b'^\	.	4bb'\	.	.	.	.	.	.	.	.	.	.	.	.	.	.	.
8D\L	.	8D\	.	.	.	8r	.	8r	.	.	.	.	.	.	.	.	.	.	.	.	.	.	.	.	.	.	.
8BJ 8F#\	16cc#\LL	8r	.	.	.	8F#/	.	8B/	.	16cc#'\LL	.	16ccc#'\LL	.	.	.	.	.	.	.	.	.	.	.	.	.	.	.
.	16dd\JJ	.	.	.	.	.	.	.	.	16dd'\JJ	.	16ddd'\JJ	.	.	.	.	.	.	.	.	.	.	.	.	.	.	.
8E\L	16ff#\LL	8E\	.	.	.	8r	.	8r	.	16ff#'\LL	.	16fff#'\LL	.	.	.	.	.	.	.	.	.	.	.	.	.	.	.
.	16ee\JJ	.	.	.	.	.	.	.	.	16ee'\JJ	.	16eee'\JJ	.	.	.	.	.	.	.	.	.	.	.	.	.	.	.
8c#J 8A\	4a/	8r	.	.	.	8A/	.	8c#/	.	4a^>/	.	4aa'\	.	.	.	.	.	.	.	.	.	.	.	.	.	.	.
8E\L	.	8E\	.	.	.	8r	.	8r	.	.	.	.	.	.	.	.	.	.	.	.	.	.	.	.	.	.	.
8c#J 8A\	16b\LL	8r	.	.	.	8A/	.	8c#/	.	16b'\LL	.	16bb'\LL	.	.	.	.	.	.	.	.	.	.	.	.	.	.	.
.	16cc#\JJ	.	.	.	.	.	.	.	.	16cc#'\JJ	.	16ccc#'\JJ	.	.	.	.	.	.	.	.	.	.	.	.	.	.	.
=8	=8	=8	=8	=8	=8	=8	=8	=8	=8	=8	=8	=8	=8	=8	=8	=8	=8	=8	=8	=8	=8	=8	=8	=8	=8	=8	=8
8E\L	16ee\LL	8E\	.	2ryy	.	8r	.	8r	.	(16ee\LL	.	(16eee\LL	.	1ryy	.	1ryy	.	1ryy	.	.	1ryy	.	.	1ryy	1ryy	.	.
!	!	!	!	!LO:TX:i:t=Violoncello	!	!	!	!	!	!	!	!	!	!	!	!	!	!	!	!	!	!	!	!	!	!	!
.	16dd\	.	.	.	.	.	.	.	.	16dd\	.	16ddd\	.	.	.	.	.	.	.	.	.	.	.	.	.	.	.
8dJ 8G#\	16cc#\	8r	.	.	.	8G#/	.	8d/	.	16cc#\	.	16ccc#\	.	.	.	.	.	.	.	.	.	.	.	.	.	.	.
.	16b\JJ	.	.	.	.	.	.	.	.	16b\JJ	.	16bb\JJ	.	.	.	.	.	.	.	.	.	.	.	.	.	.	.
8E\L	16a/LL	8E\	.	.	.	8r	.	8r	.	16a/LL	.	16aa\LL	.	.	.	.	.	.	.	.	.	.	.	.	.	.	.
.	16g#/	.	.	.	.	.	.	.	.	16g#/	.	16gg#\	.	.	.	.	.	.	.	.	.	.	.	.	.	.	.
8dJ 8B\	16f#/	8r	.	.	.	8B/	.	8d/	.	16f#/	.	16ff#\	.	.	.	.	.	.	.	.	.	.	.	.	.	.	.
.	16g#/JJ	.	.	.	.	.	.	.	.	16g#/JJ)	.	16gg#\JJ	.	.	.	.	.	.	.	.	.	.	.	.	.	.	.
8c# 8A\	8a/	8A\	.	8.r	.	8A/	.	8c#/	.	8a/	.	8aa\)	.	.	.	.	.	.	.	.	.	.	.	.	.	.	.
8r	8r	8r	.	.	.	8r	.	8r	.	8r	.	8r	.	.	.	.	.	.	.	.	.	.	.	.	.	.	.
!	!	!	!	!LO:TX:i:t=Solo	!	!	!	!	!	!	!	!	!	!	!	!	!	!	!	!	!	!	!	!	!	!	!
.	.	.	.	16B\KL	.	.	.	.	.	.	.	.	.	.	.	.	.	.	.	.	.	.	.	.	.	.	.
4r	4r	4r	.	8.c#\	.	4r	.	4r	.	4r	.	4r	.	.	.	.	.	.	.	.	.	.	.	.	.	.	.
.	.	.	.	16B\Jk	.	.	.	.	.	.	.	.	.	.	.	.	.	.	.	.	.	.	.	.	.	.	.
=9	=9	=9	=9	=9	=9	=9	=9	=9	=9	=9	=9	=9	=9	=9	=9	=9	=9	=9	=9	=9	=9	=9	=9	=9	=9	=9	=9
8D#X\	8r	8D#X\	.	8F#\	.	8d#X\	.	8r	.	8r	.	1r	.	1ryy	.	1ryy	.	1ryy	.	.	1ryy	.	.	1ryy	1ryy	.	.
8r	8a 8f# 8B/	8r	.	8r	.	8r	.	8f#/	.	8a 8B/	.	.	.	.	.	.	.	.	.	.	.	.	.	.	.	.	.
*rep	*rep	*rep	*	*	*	*rep	*	*rep	*	*rep	*	*	*	*	*	*	*	*	*	*	*	*	*	*	*	*	*
8D#\	8r	8D#\	.	[4F#\	.	8d#\	.	8r	.	8r	.	.	.	.	.	.	.	.	.	.	.	.	.	.	.	.	.
8r	8a 8f# 8B/	8r	.	.	.	8r	.	8f#/	.	8a 8B/	.	.	.	.	.	.	.	.	.	.	.	.	.	.	.	.	.
*Xrep	*Xrep	*Xrep	*	*	*	*Xrep	*	*Xrep	*	*Xrep	*	*	*	*	*	*	*	*	*	*	*	*	*	*	*	*	*
*rep	*rep	*rep	*	*	*	*rep	*	*rep	*	*rep	*	*	*	*	*	*	*	*	*	*	*	*	*	*	*	*	*
8D#\	8r	8D#\	.	8.F#\L]	.	8d#\	.	8r	.	8r	.	.	.	.	.	.	.	.	.	.	.	.	.	.	.	.	.
8r	8a 8f# 8B/	8r	.	.	.	8r	.	8f#/	.	8a 8B/	.	.	.	.	.	.	.	.	.	.	.	.	.	.	.	.	.
*Xrep	*Xrep	*Xrep	*	*	*	*Xrep	*	*Xrep	*	*Xrep	*	*	*	*	*	*	*	*	*	*	*	*	*	*	*	*	*
*rep	*rep	*rep	*	*	*	*rep	*	*rep	*	*rep	*	*	*	*	*	*	*	*	*	*	*	*	*	*	*	*	*
.	.	.	.	16F#'\Jk	.	.	.	.	.	.	.	.	.	.	.	.	.	.	.	.	.	.	.	.	.	.	.
.	.	.	.	(8qA/	.	.	.	.	.	.	.	.	.	.	.	.	.	.	.	.	.	.	.	.	.	.	.
8D#\	8r	8D#\	.	8.G#\L)	.	8d#\	.	8r	.	8r	.	.	.	.	.	.	.	.	.	.	.	.	.	.	.	.	.
8r	8a 8f# 8B/	8r	.	.	.	8r	.	8f#/	.	8a 8B/	.	.	.	.	.	.	.	.	.	.	.	.	.	.	.	.	.
*Xrep	*Xrep	*Xrep	*	*	*	*Xrep	*	*Xrep	*	*Xrep	*	*	*	*	*	*	*	*	*	*	*	*	*	*	*	*	*
.	.	.	.	16F#'\Jk	.	.	.	.	.	.	.	.	.	.	.	.	.	.	.	.	.	.	.	.	.	.	.
=10	=10	=10	=10	=10	=10	=10	=10	=10	=10	=10	=10	=10	=10	=10	=10	=10	=10	=10	=10	=10	=10	=10	=10	=10	=10	=10	=10
!!LO:LB:g=original
8E\	8r	8E\	.	[4E\	.	8e\	.	8r	.	8r	.	1r	.	1ryy	.	1ryy	.	1ryy	.	.	1ryy	.	.	1ryy	1ryy	.	.
8r	8g# 8e 8B/	8r	.	.	.	8r	.	8e/	.	8g# 8B/	.	.	.	.	.	.	.	.	.	.	.	.	.	.	.	.	.
*rep	*rep	*rep	*	*	*	*rep	*	*rep	*	*rep	*	*	*	*	*	*	*	*	*	*	*	*	*	*	*	*	*
8E\	8r	8E\	.	16E\LL]	.	8e\	.	8r	.	8r	.	.	.	.	.	.	.	.	.	.	.	.	.	.	.	.	.
.	.	.	.	16G#\	.	.	.	.	.	.	.	.	.	.	.	.	.	.	.	.	.	.	.	.	.	.	.
8r	8g# 8e 8B/	8r	.	16B\	.	8r	.	8e/	.	8g# 8B/	.	.	.	.	.	.	.	.	.	.	.	.	.	.	.	.	.
*Xrep	*Xrep	*Xrep	*	*	*	*Xrep	*	*Xrep	*	*Xrep	*	*	*	*	*	*	*	*	*	*	*	*	*	*	*	*	*
*rep	*rep	*rep	*	*	*	*rep	*	*rep	*	*rep	*	*	*	*	*	*	*	*	*	*	*	*	*	*	*	*	*
.	.	.	.	16e\JJ	.	.	.	.	.	.	.	.	.	.	.	.	.	.	.	.	.	.	.	.	.	.	.
8E\	8r	8E\	.	8.B\L	.	8e\	.	8r	.	8r	.	.	.	.	.	.	.	.	.	.	.	.	.	.	.	.	.
8r	8g# 8e 8B/	8r	.	.	.	8r	.	8e/	.	8g# 8B/	.	.	.	.	.	.	.	.	.	.	.	.	.	.	.	.	.
*Xrep	*Xrep	*Xrep	*	*	*	*Xrep	*	*Xrep	*	*Xrep	*	*	*	*	*	*	*	*	*	*	*	*	*	*	*	*	*
*rep	*rep	*rep	*	*	*	*rep	*	*rep	*	*rep	*	*	*	*	*	*	*	*	*	*	*	*	*	*	*	*	*
.	.	.	.	16B\Jk	.	.	.	.	.	.	.	.	.	.	.	.	.	.	.	.	.	.	.	.	.	.	.
.	.	.	.	(8qd#X/	.	.	.	.	.	.	.	.	.	.	.	.	.	.	.	.	.	.	.	.	.	.	.
8E\	8r	8E\	.	8.c#\L)	.	8e\	.	8r	.	8r	.	.	.	.	.	.	.	.	.	.	.	.	.	.	.	.	.
8r	8g# 8e 8B/	8r	.	.	.	8r	.	8e/	.	8g# 8B/	.	.	.	.	.	.	.	.	.	.	.	.	.	.	.	.	.
*Xrep	*Xrep	*Xrep	*	*	*	*Xrep	*	*Xrep	*	*Xrep	*	*	*	*	*	*	*	*	*	*	*	*	*	*	*	*	*
.	.	.	.	16B\Jk	.	.	.	.	.	.	.	.	.	.	.	.	.	.	.	.	.	.	.	.	.	.	.
=11	=11	=11	=11	=11	=11	=11	=11	=11	=11	=11	=11	=11	=11	=11	=11	=11	=11	=11	=11	=11	=11	=11	=11	=11	=11	=11	=11
8D#X\	8r	8D#X\	.	4F#/	.	8d#X\	.	8r	.	8r	.	1r	.	1ryy	.	1ryy	.	1ryy	.	.	1ryy	.	.	1ryy	1ryy	.	.
8r	8a 8f# 8B/	8r	.	.	.	8r	.	8f#/	.	8a 8B/	.	.	.	.	.	.	.	.	.	.	.	.	.	.	.	.	.
*rep	*rep	*rep	*	*	*	*rep	*	*rep	*	*rep	*	*	*	*	*	*	*	*	*	*	*	*	*	*	*	*	*
8D#\	8r	8D#\	.	16BB\LL	.	8d#\	.	8r	.	8r	.	.	.	.	.	.	.	.	.	.	.	.	.	.	.	.	.
.	.	.	.	16D\	.	.	.	.	.	.	.	.	.	.	.	.	.	.	.	.	.	.	.	.	.	.	.
8r	8a 8f# 8B/	8r	.	16F#\	.	8r	.	8f#/	.	8a 8B/	.	.	.	.	.	.	.	.	.	.	.	.	.	.	.	.	.
*Xrep	*Xrep	*Xrep	*	*	*	*Xrep	*	*Xrep	*	*Xrep	*	*	*	*	*	*	*	*	*	*	*	*	*	*	*	*	*
*rep	*rep	*rep	*	*	*	*rep	*	*rep	*	*rep	*	*	*	*	*	*	*	*	*	*	*	*	*	*	*	*	*
.	.	.	.	16G#\JJ	.	.	.	.	.	.	.	.	.	.	.	.	.	.	.	.	.	.	.	.	.	.	.
8D#\	8r	8D#\	.	8.A\L	.	8d#\	.	8r	.	8r	.	.	.	.	.	.	.	.	.	.	.	.	.	.	.	.	.
8r	8a 8f# 8B/	8r	.	.	.	8r	.	8f#/	.	8a 8B/	.	.	.	.	.	.	.	.	.	.	.	.	.	.	.	.	.
*Xrep	*Xrep	*Xrep	*	*	*	*Xrep	*	*Xrep	*	*Xrep	*	*	*	*	*	*	*	*	*	*	*	*	*	*	*	*	*
*rep	*rep	*rep	*	*	*	*rep	*	*rep	*	*rep	*	*	*	*	*	*	*	*	*	*	*	*	*	*	*	*	*
.	.	.	.	16A\Jk	.	.	.	.	.	.	.	.	.	.	.	.	.	.	.	.	.	.	.	.	.	.	.
.	.	.	.	(8qA/	.	.	.	.	.	.	.	.	.	.	.	.	.	.	.	.	.	.	.	.	.	.	.
8D#\	8r	8D#\	.	8.G#\L)	.	8d#\	.	8r	.	8r	.	.	.	.	.	.	.	.	.	.	.	.	.	.	.	.	.
8r	8a 8f# 8B/	8r	.	.	.	8r	.	8f#/	.	8a 8B/	.	.	.	.	.	.	.	.	.	.	.	.	.	.	.	.	.
*Xrep	*Xrep	*Xrep	*	*	*	*Xrep	*	*Xrep	*	*Xrep	*	*	*	*	*	*	*	*	*	*	*	*	*	*	*	*	*
.	.	.	.	16F#\Jk	.	.	.	.	.	.	.	.	.	.	.	.	.	.	.	.	.	.	.	.	.	.	.
=12	=12	=12	=12	=12	=12	=12	=12	=12	=12	=12	=12	=12	=12	=12	=12	=12	=12	=12	=12	=12	=12	=12	=12	=12	=12	=12	=12
8E\	8r	8E\	.	[4E\	.	8e\	.	8r	.	8r	.	2r	.	1ryy	.	1ryy	.	1ryy	.	.	1ryy	.	.	1ryy	1ryy	.	.
8r	8g# 8e 8B/	8r	.	.	.	8r	.	8e/	.	8g# 8B/	.	.	.	.	.	.	.	.	.	.	.	.	.	.	.	.	.
*rep	*rep	*rep	*	*	*	*rep	*	*rep	*	*rep	*	*	*	*	*	*	*	*	*	*	*	*	*	*	*	*	*
8E\	8r	8E\	.	16E\LL]	.	8e\	.	8r	.	8r	.	.	.	.	.	.	.	.	.	.	.	.	.	.	.	.	.
.	.	.	.	16G#\	.	.	.	.	.	.	.	.	.	.	.	.	.	.	.	.	.	.	.	.	.	.	.
8r	8g# 8e 8B/	8r	.	16B\	.	8r	.	8e/	.	8g# 8B/	.	.	.	.	.	.	.	.	.	.	.	.	.	.	.	.	.
*Xrep	*Xrep	*Xrep	*	*	*	*Xrep	*	*Xrep	*	*Xrep	*	*	*	*	*	*	*	*	*	*	*	*	*	*	*	*	*
*rep	*rep	*rep	*	*	*	*rep	*	*rep	*	*rep	*	*	*	*	*	*	*	*	*	*	*	*	*	*	*	*	*
.	.	.	.	16e\JJ	.	.	.	.	.	.	.	.	.	.	.	.	.	.	.	.	.	.	.	.	.	.	.
8E\	8r	8E\	.	4E\	.	8e\	.	8r	.	8r	.	8.r	.	.	.	.	.	.	.	.	.	.	.	.	.	.	.
8r	8g# 8e 8B/	8r	.	.	.	8r	.	8e/	.	8g# 8B/	.	.	.	.	.	.	.	.	.	.	.	.	.	.	.	.	.
*Xrep	*Xrep	*Xrep	*	*	*	*Xrep	*	*Xrep	*	*Xrep	*	*	*	*	*	*	*	*	*	*	*	*	*	*	*	*	*
*rep	*rep	*rep	*	*	*	*rep	*	*rep	*	*rep	*	*	*	*	*	*	*	*	*	*	*	*	*	*	*	*	*
.	.	.	.	.	.	.	.	.	.	.	.	16ee'\KL	.	.	.	.	.	.	.	.	.	.	.	.	.	.	.
8E\	8r	8E\	.	4r	.	8e\	.	8r	.	8r	.	8.ff#'\	.	.	.	.	.	.	.	.	.	.	.	.	.	.	.
8r	8g# 8e 8B/	8r	.	.	.	8r	.	8e/	.	8g# 8B/	.	.	.	.	.	.	.	.	.	.	.	.	.	.	.	.	.
*Xrep	*Xrep	*Xrep	*	*	*	*Xrep	*	*Xrep	*	*Xrep	*	*	*	*	*	*	*	*	*	*	*	*	*	*	*	*	*
.	.	.	.	.	.	.	.	.	.	.	.	16ee'\Jk	.	.	.	.	.	.	.	.	.	.	.	.	.	.	.
=13	=13	=13	=13	=13	=13	=13	=13	=13	=13	=13	=13	=13	=13	=13	=13	=13	=13	=13	=13	=13	=13	=13	=13	=13	=13	=13	=13
8E\	8r	8E\	.	8E\yy	.	8e\	.	8r	.	8r	.	(16ddd\LL	.	1ryy	.	1ryy	.	1ryy	.	.	1ryy	.	.	1ryy	1ryy	.	.
.	.	.	.	.	.	.	.	.	.	.	.	16bb\	.	.	.	.	.	.	.	.	.	.	.	.	.	.	.
8r	8g# 8e 8d 8B/	8r	.	8ryy	.	8r	.	8e 8d/	.	8g# 8B/	.	16gg#\	.	.	.	.	.	.	.	.	.	.	.	.	.	.	.
.	.	.	.	.	.	.	.	.	.	.	.	16ee\JJ)	.	.	.	.	.	.	.	.	.	.	.	.	.	.	.
*rep	*rep	*rep	*	*	*	*rep	*	*rep	*	*rep	*	*	*	*	*	*	*	*	*	*	*	*	*	*	*	*	*
8E\	8r	8E\	.	8E\yy	.	8e\	.	8r	.	8r	.	[4dd\	.	.	.	.	.	.	.	.	.	.	.	.	.	.	.
8r	8g# 8e 8d 8B/	8r	.	8ryy	.	8r	.	8e 8d/	.	8g# 8B/	.	.	.	.	.	.	.	.	.	.	.	.	.	.	.	.	.
*Xrep	*Xrep	*Xrep	*	*	*	*Xrep	*	*Xrep	*	*Xrep	*	*	*	*	*	*	*	*	*	*	*	*	*	*	*	*	*
*rep	*rep	*rep	*	*	*	*rep	*	*rep	*	*rep	*	*	*	*	*	*	*	*	*	*	*	*	*	*	*	*	*
8E\	8r	8E\	.	8E\yy	.	8e\	.	8r	.	8r	.	8.dd\L]	.	.	.	.	.	.	.	.	.	.	.	.	.	.	.
8r	8g# 8e 8d 8B/	8r	.	8ryy	.	8r	.	8e 8d/	.	8g# 8B/	.	.	.	.	.	.	.	.	.	.	.	.	.	.	.	.	.
*Xrep	*Xrep	*Xrep	*	*	*	*Xrep	*	*Xrep	*	*Xrep	*	*	*	*	*	*	*	*	*	*	*	*	*	*	*	*	*
*rep	*rep	*rep	*	*	*	*rep	*	*rep	*	*rep	*	*	*	*	*	*	*	*	*	*	*	*	*	*	*	*	*
.	.	.	.	.	.	.	.	.	.	.	.	16ee|\Jk	.	.	.	.	.	.	.	.	.	.	.	.	.	.	.
.	.	.	.	.	.	.	.	.	.	.	.	(8qgg#/	.	.	.	.	.	.	.	.	.	.	.	.	.	.	.
8E\	8r	8E\	.	8E\yy	.	8e\	.	8r	.	8r	.	8.ff#\L)	.	.	.	.	.	.	.	.	.	.	.	.	.	.	.
8r	8g# 8e 8d 8B/	8r	.	8ryy	.	8r	.	8e 8d/	.	8g# 8B/	.	.	.	.	.	.	.	.	.	.	.	.	.	.	.	.	.
*Xrep	*Xrep	*Xrep	*	*	*	*Xrep	*	*Xrep	*	*Xrep	*	*	*	*	*	*	*	*	*	*	*	*	*	*	*	*	*
.	.	.	.	.	.	.	.	.	.	.	.	16ee|\Jk	.	.	.	.	.	.	.	.	.	.	.	.	.	.	.
=14	=14	=14	=14	=14	=14	=14	=14	=14	=14	=14	=14	=14	=14	=14	=14	=14	=14	=14	=14	=14	=14	=14	=14	=14	=14	=14	=14
!!LO:PB:g=original
8A 8AA\	8r	8AA/	.	8AA/yy	.	8A/	.	8r	.	8r	.	(16ccc#\LL	.	1ryy	.	1ryy	.	1ryy	.	.	1ryy	.	.	1ryy	1ryy	.	.
.	.	.	.	.	.	.	.	.	.	.	.	16aa\	.	.	.	.	.	.	.	.	.	.	.	.	.	.	.
8r	8a 8e 8c#/	8r	.	8ryy	.	8r	.	8e 8c#/	.	8a 8c#/	.	16ee\	.	.	.	.	.	.	.	.	.	.	.	.	.	.	.
.	.	.	.	.	.	.	.	.	.	.	.	16cc#\JJ	.	.	.	.	.	.	.	.	.	.	.	.	.	.	.
*rep	*rep	*rep	*	*repy	*	*rep	*	*rep	*	*rep	*	*	*	*	*	*	*	*	*	*	*	*	*	*	*	*	*
8A 8AA\	8r	8AA/	.	8AA/yy	.	8A/	.	8r	.	8r	.	[4a/)	.	.	.	.	.	.	.	.	.	.	.	.	.	.	.
8r	8a 8e 8c#/	8r	.	8ryy	.	8r	.	8e 8c#/	.	8a 8c#/	.	.	.	.	.	.	.	.	.	.	.	.	.	.	.	.	.
*Xrep	*Xrep	*Xrep	*	*Xrep	*	*Xrep	*	*Xrep	*	*Xrep	*	*	*	*	*	*	*	*	*	*	*	*	*	*	*	*	*
*rep	*rep	*rep	*	*repy	*	*rep	*	*rep	*	*rep	*	*	*	*	*	*	*	*	*	*	*	*	*	*	*	*	*
8A 8AA\	8r	8AA/	.	8AA/yy	.	8A/	.	8r	.	8r	.	8.a/]	.	.	.	.	.	.	.	.	.	.	.	.	.	.	.
8r	8a 8e 8c#/	8r	.	8ryy	.	8r	.	8e 8c#/	.	8a 8c#/	.	.	.	.	.	.	.	.	.	.	.	.	.	.	.	.	.
*Xrep	*Xrep	*Xrep	*	*Xrep	*	*Xrep	*	*Xrep	*	*Xrep	*	*	*	*	*	*	*	*	*	*	*	*	*	*	*	*	*
*rep	*rep	*rep	*	*repy	*	*rep	*	*rep	*	*rep	*	*	*	*	*	*	*	*	*	*	*	*	*	*	*	*	*
.	.	.	.	.	.	.	.	.	.	.	.	16aa'\KL	.	.	.	.	.	.	.	.	.	.	.	.	.	.	.
8A 8AA\	8r	8AA/	.	8AA/yy	.	8A/	.	8r	.	8r	.	8.gg#'\	.	.	.	.	.	.	.	.	.	.	.	.	.	.	.
8r	8a 8e 8c#/	8r	.	8ryy	.	8r	.	8e 8c#/	.	8a 8c#/	.	.	.	.	.	.	.	.	.	.	.	.	.	.	.	.	.
*Xrep	*Xrep	*Xrep	*	*Xrep	*	*Xrep	*	*Xrep	*	*Xrep	*	*	*	*	*	*	*	*	*	*	*	*	*	*	*	*	*
.	.	.	.	.	.	.	.	.	.	.	.	16aa'\Jk	.	.	.	.	.	.	.	.	.	.	.	.	.	.	.
=15	=15	=15	=15	=15	=15	=15	=15	=15	=15	=15	=15	=15	=15	=15	=15	=15	=15	=15	=15	=15	=15	=15	=15	=15	=15	=15	=15
8D 8DD/	8r	8D\	.	8D\yy	.	8d\	.	8r	.	8r	.	(16ee#X\LL	.	1ryy	.	1ryy	.	1ryy	.	.	1ryy	.	.	1ryy	1ryy	.	.
.	.	.	.	.	.	.	.	.	.	.	.	16ff#\)	.	.	.	.	.	.	.	.	.	.	.	.	.	.	.
8r	8b 8f# 8d/	8r	.	8ryy	.	8r	.	8f#/	.	8b 8d/	.	(16aa#X\	.	.	.	.	.	.	.	.	.	.	.	.	.	.	.
.	.	.	.	.	.	.	.	.	.	.	.	16bb\JJ)	.	.	.	.	.	.	.	.	.	.	.	.	.	.	.
*rep	*rep	*rep	*	*repy	*	*rep	*	*rep	*	*rep	*	*	*	*	*	*	*	*	*	*	*	*	*	*	*	*	*
8D 8DD/	8r	8D\	.	8D\yy	.	8d\	.	8r	.	8r	.	16ddd|\LL	.	.	.	.	.	.	.	.	.	.	.	.	.	.	.
.	.	.	.	.	.	.	.	.	.	.	.	(16aa#X\	.	.	.	.	.	.	.	.	.	.	.	.	.	.	.
8r	8b 8f# 8d/	8r	.	8ryy	.	8r	.	8f#/	.	8b 8d/	.	16bb\)	.	.	.	.	.	.	.	.	.	.	.	.	.	.	.
*Xrep	*Xrep	*Xrep	*	*Xrep	*	*Xrep	*	*Xrep	*	*Xrep	*	*	*	*	*	*	*	*	*	*	*	*	*	*	*	*	*
*rep	*rep	*rep	*	*repy	*	*rep	*	*rep	*	*rep	*	*	*	*	*	*	*	*	*	*	*	*	*	*	*	*	*
.	.	.	.	.	.	.	.	.	.	.	.	(16ddd\JJ	.	.	.	.	.	.	.	.	.	.	.	.	.	.	.
8D 8DD/	8r	8D\	.	8D\yy	.	8d\	.	8r	.	8r	.	8.fff#\L)	.	.	.	.	.	.	.	.	.	.	.	.	.	.	.
8r	8b 8f# 8d/	8r	.	8ryy	.	8r	.	8f#/	.	8b 8d/	.	.	.	.	.	.	.	.	.	.	.	.	.	.	.	.	.
*Xrep	*Xrep	*Xrep	*	*Xrep	*	*Xrep	*	*Xrep	*	*Xrep	*	*	*	*	*	*	*	*	*	*	*	*	*	*	*	*	*
*rep	*rep	*rep	*	*repy	*	*rep	*	*rep	*	*rep	*	*	*	*	*	*	*	*	*	*	*	*	*	*	*	*	*
.	.	.	.	.	.	.	.	.	.	.	.	16fff#'\K	.	.	.	.	.	.	.	.	.	.	.	.	.	.	.
8D 8DD/	8r	8D\	.	8D\yy	.	8d\	.	8r	.	8r	.	8.eee'\	.	.	.	.	.	.	.	.	.	.	.	.	.	.	.
8r	8b 8f# 8d/	8r	.	8ryy	.	8r	.	8f#/	.	8b 8d/	.	.	.	.	.	.	.	.	.	.	.	.	.	.	.	.	.
*Xrep	*Xrep	*Xrep	*	*Xrep	*	*Xrep	*	*Xrep	*	*Xrep	*	*	*	*	*	*	*	*	*	*	*	*	*	*	*	*	*
.	.	.	.	.	.	.	.	.	.	.	.	16ddd'\Jk	.	.	.	.	.	.	.	.	.	.	.	.	.	.	.
=16	=16	=16	=16	=16	=16	=16	=16	=16	=16	=16	=16	=16	=16	=16	=16	=16	=16	=16	=16	=16	=16	=16	=16	=16	=16	=16	=16
8E 8EE/	8r	8E\	.	8E\yy	.	8e\	.	8r	.	8r	.	16ccc#'\LL	.	1ryy	.	1ryy	.	1ryy	.	.	1ryy	.	.	1ryy	1ryy	.	.
.	.	.	.	.	.	.	.	.	.	.	.	(16fff#\	.	.	.	.	.	.	.	.	.	.	.	.	.	.	.
8r	8a 8e 8c#/	8r	.	8ryy	.	8r	.	8e/	.	8a 8c#/	.	16eee\)	.	.	.	.	.	.	.	.	.	.	.	.	.	.	.
.	.	.	.	.	.	.	.	.	.	.	.	(16ccc#\JJ	.	.	.	.	.	.	.	.	.	.	.	.	.	.	.
8E 8EE/	8r	8E\	.	8E\yy	.	8e\	.	8r	.	8r	.	[4aa\)	.	.	.	.	.	.	.	.	.	.	.	.	.	.	.
8r	8a 8e 8c#/	8r	.	8ryy	.	8r	.	8e/	.	8a 8c#/	.	.	.	.	.	.	.	.	.	.	.	.	.	.	.	.	.
8E 8EE/	8r	8E\	.	8E\yy	.	8e\	.	8r	.	8r	.	8aa\L]	.	.	.	.	.	.	.	.	.	.	.	.	.	.	.
8r	8a 8e 8c#/	8r	.	8ryy	.	8r	.	8e/	.	8a 8c#/	.	(32bb\LL	.	.	.	.	.	.	.	.	.	.	.	.	.	.	.
.	.	.	.	.	.	.	.	.	.	.	.	32aa\	.	.	.	.	.	.	.	.	.	.	.	.	.	.	.
.	.	.	.	.	.	.	.	.	.	.	.	32gg#X\	.	.	.	.	.	.	.	.	.	.	.	.	.	.	.
.	.	.	.	.	.	.	.	.	.	.	.	32aa\JJJ	.	.	.	.	.	.	.	.	.	.	.	.	.	.	.
4E 4EE/	8r	4E\	.	4E\yy	.	4B/	.	4e/	.	4g# 4d/	.	8.ccc#\L)	.	.	.	.	.	.	.	.	.	.	.	.	.	.	.
.	8g# 8e 8d 8B/	.	.	.	.	.	.	.	.	.	.	.	.	.	.	.	.	.	.	.	.	.	.	.	.	.	.
.	.	.	.	.	.	.	.	.	.	.	.	16bb|\Jk	.	.	.	.	.	.	.	.	.	.	.	.	.	.	.
=17	=17	=17	=17	=17	=17	=17	=17	=17	=17	=17	=17	=17	=17	=17	=17	=17	=17	=17	=17	=17	=17	=17	=17	=17	=17	=17	=17
!!LO:LB:g=original
8A 8AA\	8r	8AA/	.	8AA/yy	.	8A/L	.	8e/L	.	8a 8c#/	.	16aa'\LL	.	1ryy	.	1ryy	.	1ryy	.	.	1ryy	.	.	1ryy	1ryy	.	.
.	.	.	.	.	.	.	.	.	.	.	.	16cc#'\	.	.	.	.	.	.	.	.	.	.	.	.	.	.	.
8r	8a 8e 8c#/	8r	.	8ryy	.	8A/J	.	8c#/J	.	8a/	.	(16ff#\	.	.	.	.	.	.	.	.	.	.	.	.	.	.	.
.	.	.	.	.	.	.	.	.	.	.	.	16ee\JJ)	.	.	.	.	.	.	.	.	.	.	.	.	.	.	.
8A 8AA\	8r	8A\	.	8Ayy	.	8r	.	8r	.	8r	.	16a'\LL	.	.	.	.	.	.	.	.	.	.	.	.	.	.	.
.	.	.	.	.	.	.	.	.	.	.	.	16cc#'\	.	.	.	.	.	.	.	.	.	.	.	.	.	.	.
8r	8cc# 8a 8e/	8r	.	8ryy	.	8e\	.	8a/	.	8cc#\	.	(16ff#\	.	.	.	.	.	.	.	.	.	.	.	.	.	.	.
.	.	.	.	.	.	.	.	.	.	.	.	16ee\JJ)	.	.	.	.	.	.	.	.	.	.	.	.	.	.	.
8E 8EE/	8r	8E\	.	8Eyy	.	8r	.	8r	.	8r	.	16dd'\LL	.	.	.	.	.	.	.	.	.	.	.	.	.	.	.
.	.	.	.	.	.	.	.	.	.	.	.	16b'\	.	.	.	.	.	.	.	.	.	.	.	.	.	.	.
8r	8dd 8b 8e/	8r	.	8ryy	.	8e\	.	8b/	.	8dd\	.	(16gg#\	.	.	.	.	.	.	.	.	.	.	.	.	.	.	.
.	.	.	.	.	.	.	.	.	.	.	.	16ee\JJ)	.	.	.	.	.	.	.	.	.	.	.	.	.	.	.
8E 8EE/	8r	8EE/	.	8EEyy	.	8r	.	8r	.	8r	.	(16bb\LL	.	.	.	.	.	.	.	.	.	.	.	.	.	.	.
.	.	.	.	.	.	.	.	.	.	.	.	16gg#\)	.	.	.	.	.	.	.	.	.	.	.	.	.	.	.
8r	8g# 8e 8d 8B/	8r	.	8ryy	.	8B/	.	8d/	.	8g#/	.	16ee'\	.	.	.	.	.	.	.	.	.	.	.	.	.	.	.
.	.	.	.	.	.	.	.	.	.	.	.	16dd'\JJ	.	.	.	.	.	.	.	.	.	.	.	.	.	.	.
=18	=18	=18	=18	=18	=18	=18	=18	=18	=18	=18	=18	=18	=18	=18	=18	=18	=18	=18	=18	=18	=18	=18	=18	=18	=18	=18	=18
*rep	*rep	*	*	*	*	*	*	*	*	*	*	*	*	*	*	*	*	*	*	*	*	*	*	*	*	*	*
8A 8AA\	8r	8AA/	.	8AAyy	.	8r	.	8r	.	8r	.	16cc#'\LL	.	1ryy	.	1ryy	.	1ryy	.	.	1ryy	.	.	1ryy	1ryy	.	.
.	.	.	.	.	.	.	.	.	.	.	.	16a'\	.	.	.	.	.	.	.	.	.	.	.	.	.	.	.
8r	8a 8e 8c#/	8r	.	8ryy	.	8A/	.	8c#/	.	8a/	.	(16ff#\	.	.	.	.	.	.	.	.	.	.	.	.	.	.	.
.	.	.	.	.	.	.	.	.	.	.	.	16ee\JJ)	.	.	.	.	.	.	.	.	.	.	.	.	.	.	.
8A 8AA\	8r	8A\	.	8Ayy	.	8r	.	8r	.	8r	.	16a'\LL	.	.	.	.	.	.	.	.	.	.	.	.	.	.	.
.	.	.	.	.	.	.	.	.	.	.	.	16cc#'\	.	.	.	.	.	.	.	.	.	.	.	.	.	.	.
8r	8a 8e 8c#/	8r	.	8ryy	.	8e\	.	8a/	.	8cc#\	.	(16ff#\	.	.	.	.	.	.	.	.	.	.	.	.	.	.	.
.	.	.	.	.	.	.	.	.	.	.	.	16ee\JJ)	.	.	.	.	.	.	.	.	.	.	.	.	.	.	.
8E 8EE/	8r	8E\	.	8Eyy	.	8r	.	8r	.	8r	.	16dd'\LL	.	.	.	.	.	.	.	.	.	.	.	.	.	.	.
.	.	.	.	.	.	.	.	.	.	.	.	16b'\	.	.	.	.	.	.	.	.	.	.	.	.	.	.	.
8r	8a 8e 8c#/	8r	.	8ryy	.	8e\	.	8b\	.	8dd\	.	(16gg#\	.	.	.	.	.	.	.	.	.	.	.	.	.	.	.
.	.	.	.	.	.	.	.	.	.	.	.	16ee\JJ)	.	.	.	.	.	.	.	.	.	.	.	.	.	.	.
8E 8EE/	8r	8E\	.	8Eyy	.	8r	.	8r	.	8r	.	(16bb\LL	.	.	.	.	.	.	.	.	.	.	.	.	.	.	.
.	.	.	.	.	.	.	.	.	.	.	.	16gg#\)	.	.	.	.	.	.	.	.	.	.	.	.	.	.	.
8r	8a 8e 8c#/	8r	.	8ryy	.	8B/	.	8d/	.	8g#/	.	16ee'\	.	.	.	.	.	.	.	.	.	.	.	.	.	.	.
.	.	.	.	.	.	.	.	.	.	.	.	16dd'\JJ	.	.	.	.	.	.	.	.	.	.	.	.	.	.	.
*Xrep	*Xrep	*	*	*	*	*	*	*	*	*	*	*	*	*	*	*	*	*	*	*	*	*	*	*	*	*	*
=19	=19	=19	=19	=19	=19	=19	=19	=19	=19	=19	=19	=19	=19	=19	=19	=19	=19	=19	=19	=19	=19	=19	=19	=19	=19	=19	=19
8A 8AA\	8a 8e 8c#/	8A\	.	16A\LL	.	8A/	.	8c#/	.	8a/	.	16cc#'\LL	.	1ryy	.	1ryy	.	1ryy	.	.	1ryy	.	.	1ryy	1ryy	.	.
.	.	.	.	16a\	.	.	.	.	.	.	.	16a'\	.	.	.	.	.	.	.	.	.	.	.	.	.	.	.
8r	8r	8r	.	16g#X\	.	8r	.	8r	.	8r	.	16b'\	.	.	.	.	.	.	.	.	.	.	.	.	.	.	.
.	.	.	.	16gn\JJ	.	.	.	.	.	.	.	16cc#'\JJ	.	.	.	.	.	.	.	.	.	.	.	.	.	.	.
4r	4r	4r	.	16f#\LL	.	4r	.	4r	.	4r	.	16dd'\LL	.	.	.	.	.	.	.	.	.	.	.	.	.	.	.
.	.	.	.	16c#\	.	.	.	.	.	.	.	16ee'\	.	.	.	.	.	.	.	.	.	.	.	.	.	.	.
.	.	.	.	16d\	.	.	.	.	.	.	.	16ff#'\	.	.	.	.	.	.	.	.	.	.	.	.	.	.	.
.	.	.	.	16B\JJ	.	.	.	.	.	.	.	16gg#'\JJ	.	.	.	.	.	.	.	.	.	.	.	.	.	.	.
8r	8r	8r	.	8A\L	.	8r	.	8r	.	8r	.	8aa'\L	.	.	.	.	.	.	.	.	.	.	.	.	.	.	.
8G#\L	8bL 8g# 8e/	8G#^<\L	.	8G#\	.	8e\L	.	8e'^>/L	.	8b'\L	.	8bb'^<\	.	.	.	.	.	.	.	.	.	.	.	.	.	.	.
8A\	8cc# 8a 8e/	8A^<\	.	8A\	.	8e\	.	8a'^>/	.	8cc#'\	.	8ccc#'^<\	.	.	.	.	.	.	.	.	.	.	.	.	.	.	.
8Fn\J	8dd#XJ 8b 8a 8f#/	8Fn^<\J	.	8Fn\J	.	8fn\J	.	8a'^>/J	.	8b'\J	.	8dd#X'^<\J	.	.	.	.	.	.	.	.	.	.	.	.	.	.	.
=20	=20	=20	=20	=20	=20	=20	=20	=20	=20	=20	=20	=20	=20	=20	=20	=20	=20	=20	=20	=20	=20	=20	=20	=20	=20	=20	=20
8E\	8cc#L 8a 8e/	8E\	.	8E\	.	8e\L	.	8a/L	.	8cc#/L	.	(16ff#\LL	.	1ryy	.	1ryy	.	1ryy	.	.	1ryy	.	.	1ryy	1ryy	.	.
.	.	.	.	.	.	.	.	.	.	.	.	16ee\)	.	.	.	.	.	.	.	.	.	.	.	.	.	.	.
8r	8aJ 8e 8c#/	8r	.	8r	.	8c#\J	.	8e/J	.	8a/J	.	16cc#'\	.	.	.	.	.	.	.	.	.	.	.	.	.	.	.
.	.	.	.	.	.	.	.	.	.	.	.	16a'\JJ	.	.	.	.	.	.	.	.	.	.	.	.	.	.	.
8E\	8r	8E\	.	8E\	.	8r	.	8r	.	8r	.	(16bb\LL	.	.	.	.	.	.	.	.	.	.	.	.	.	.	.
.	.	.	.	.	.	.	.	.	.	.	.	16aa\)	.	.	.	.	.	.	.	.	.	.	.	.	.	.	.
8r	8cc# 8a 8e/	8r	.	8r	.	8e\	.	8a/	.	8cc#\	.	16ee'\	.	.	.	.	.	.	.	.	.	.	.	.	.	.	.
.	.	.	.	.	.	.	.	.	.	.	.	16cc#'\JJ	.	.	.	.	.	.	.	.	.	.	.	.	.	.	.
8C#/	8r	8C#/	.	8C#/	.	8r	.	8r	.	8r	.	(16ddd\LL	.	.	.	.	.	.	.	.	.	.	.	.	.	.	.
.	.	.	.	.	.	.	.	.	.	.	.	16ccc#\)	.	.	.	.	.	.	.	.	.	.	.	.	.	.	.
8r	8ee 8cc# 8a/	8r	.	8r	.	8a\	.	8cc#\	.	8ee\	.	16aa'\	.	.	.	.	.	.	.	.	.	.	.	.	.	.	.
.	.	.	.	.	.	.	.	.	.	.	.	16ee'\JJ	.	.	.	.	.	.	.	.	.	.	.	.	.	.	.
8AA/	8r	8AA/	.	8AA/	.	8r	.	8r	.	8r	.	(16fff#\LL	.	.	.	.	.	.	.	.	.	.	.	.	.	.	.
.	.	.	.	.	.	.	.	.	.	.	.	16eee\)	.	.	.	.	.	.	.	.	.	.	.	.	.	.	.
8r	8aa 8cc# 8a\	8r	.	8r	.	8a\	.	8cc#\	.	8aa\	.	16ccc#'\	.	.	.	.	.	.	.	.	.	.	.	.	.	.	.
.	.	.	.	.	.	.	.	.	.	.	.	16aa'\JJ	.	.	.	.	.	.	.	.	.	.	.	.	.	.	.
=21	=21	=21	=21	=21	=21	=21	=21	=21	=21	=21	=21	=21	=21	=21	=21	=21	=21	=21	=21	=21	=21	=21	=21	=21	=21	=21	=21
!!LO:PB:g=original
!	!	!	!	!	!	!	!	!	!	!	!	!	!	!	!	!LO:TX:a:t=Choro tutti	!	!	!	!	!	!	!	!	!	!	!
.	.	.	.	.	.	.	.	.	.	.	.	(8qaa#X/	.	.	.	.	.	.	.	.	.	.	.	.	.	.	.
4D 4DD/	4b 4f# 4d/	4D\	.	4D\yy	.	4d\	.	8r	.	8r	.	2bbT\)	.	1r	.	1r	.	1r	.	.	1r	.	.	1r	1r	.	.
.	.	.	.	.	.	.	.	8dd\L	.	8ff#L 8b\	.	.	.	.	.	.	.	.	.	.	.	.	.	.	.	.	.
!	!	!	!LO:HP:a	!	!	!	!	!	!	!	!	!	!	!	!	!	!	!	!	!	!	!	!	!	!	!	!
4r	4r	4r	<	4ryy	.	4r	.	8dd\	.	8ff# 8b\	.	.	.	.	.	.	.	.	.	.	.	.	.	.	.	.	.
.	.	.	.	.	.	.	.	8dd\J	.	8ff#J 8b\	.	.	.	.	.	.	.	.	.	.	.	.	.	.	.	.	.
.	.	.	.	.	.	.	.	.	.	.	.	(8qddd#X/	<	.	.	.	.	.	.	.	.	.	.	.	.	.	.
4E 4EE/	4g# 4e 4d 4B/	4E\	.	4E\yy	.	4e\	.	8r	.	8r	.	2eeeT\)	.	.	.	.	.	.	.	.	.	.	.	.	.	.	.
.	.	.	.	.	.	.	.	8ddL 8e/	.	8gg#L 8b\	.	.	.	.	.	.	.	.	.	.	.	.	.	.	.	.	.
4r	4r	4r	[[	4ryy	.	4r	.	8dd 8e/	.	8gg# 8b\	.	.	.	.	.	.	.	.	.	.	.	.	.	.	.	.	.
.	.	.	.	.	.	.	.	8ddJ 8e/	.	8gg#J 8b\	.	.	[	.	.	.	.	.	.	.	.	.	.	.	.	.	.
.	.	.	.	.	.	.	.	.	.	.	.	16qqddd#/LL	.	.	.	.	.	.	.	.	.	.	.	.	.	.	.
.	.	.	.	.	.	.	.	.	.	.	.	16qqeee/JJ	.	.	.	.	.	.	.	.	.	.	.	.	.	.	.
=22	=22	=22	=22	=22	=22	=22	=22	=22	=22	=22	=22	=22	=22	=22	=22	=22	=22	=22	=22	=22	=22	=22	=22	=22	=22	=22	=22
!	!	!	!LO:DY:a:rj	!	!LO:DY:a:rj	!	!LO:DY:a:rj	!	!	!	!	!	!LO:DY:rj	!	!	!	!	!	!	!	!	!	!	!	!	!	!
8AL 8AA\	8aL 8e 8c#/	8A'\L	f	8A\Lyy	f	8a\L	f	8dd 8e/	.	8aa 8cc#\	.	8aa'\L	f	1r	.	1r	.	1r	.	.	1r	.	.	1r	1r	.	.
!	!	!	!	!	!	!	!	!LO:TX:t=P:problem=od raz I do TRZY powtarzam po Vn I	!	!	!	!	!	!	!	!	!	!	!	!	!	!	!	!	!	!	!
!	!	!	!	!	!	!	!	!LO:TX:a:t=unis	!	!	!	!	!	!	!	!	!	!	!	!	!	!	!	!	!	!	!
16G#\L	(16g#/L	(16G#\L	.	(16G#\Lyy	.	(16g#\L	.	16g#/LLyy	.	16g#/LL	.	(16gg#X\L	.	.	.	.	.	.	.	.	.	.	.	.	.	.	.
16A\JJ	16a/JJ)	16A\JJ)	.	16A\JJ)yy	.	16a\JJ)	.	16a/JJyy	.	16a/JJ	.	16aa\JJ)	.	.	.	.	.	.	.	.	.	.	.	.	.	.	.
16D#X\LL	(16b#X\LL	(16D#X\LL	.	(16D#X\LLyy	.	(16d#X\LL	.	16b#X\LLyy	.	16b#X\LL	.	(16bb#X\LL	.	.	.	.	.	.	.	.	.	.	.	.	.	.	.
16E\JJ	16cc#\)JJ	16E\JJ)	.	16E\JJ)yy	.	16e\JJ)	.	16cc#\JJyy	.	16cc#\JJ	.	16ccc#\JJ)	.	.	.	.	.	.	.	.	.	.	.	.	.	.	.
16BB#X/LL	(16dd#X\LL	(16BB#X/LL	.	(16BB#X/LLyy	.	(16B#X/LL	.	16dd#X\LLyy	.	16dd#X\LL	.	(16ddd#X\LL	.	.	.	.	.	.	.	.	.	.	.	.	.	.	.
16C#/JJ	16ee\JJ)	16C#/JJ)	.	16C#/JJ)yy	.	16c#/JJ)	.	16ee\JJyy	.	16ee\JJ	.	16eee\JJ)	.	.	.	.	.	.	.	.	.	.	.	.	.	.	.
!	!	!	!	!	!	!	!	!	!	!	!	! - powtarzam partię Vn I od trzy i w takcie 23 do końca taktu 67	!	!	!	!	!	!	!	!	!	!	!	!	!	!	!
8AA/	8aa\	8AA/	.	8AA/yy	.	8A/	.	8aayy 8a\yy	.	8aa 8a\	.	8aaa\	.	.	.	.	.	.	.	.	.	.	.	.	.	.	.
!	!	!LO:TX:t=P:problem=mixed beam	!	!	!	!	!	!	!	!LO:TX:t=P:problem=klamra łukowa	!	!LO:TX:t=P:problem=klamra łukowa	!	!	!	!	!	!	!	!	!	!	!	!	!	!	!
8AL 8AA\	8cc#/ 8a/ 8e/L	8A\L	.	8A\Lyy	.	8e\L	.	8a/L	.	24cc#\LL	.	24cc#\LLyy	.	.	.	.	.	.	.	.	.	.	.	.	.	.	.
.	.	.	.	.	.	.	.	.	.	24dd#\	.	24dd#X\yy	.	.	.	.	.	.	.	.	.	.	.	.	.	.	.
.	.	.	.	.	.	.	.	.	.	24cc#\JJ	.	24cc#\JJyy	.	.	.	.	.	.	.	.	.	.	.	.	.	.	.
8B 8BB#\	8b#/ 8g#/ 8e/	8B\	.	8B\yy	.	8e\	.	8g#/	.	8b#\L	.	8b#X\Lyy	.	.	.	.	.	.	.	.	.	.	.	.	.	.	.
8BJ 8BB#\	8dd#X/J 8b#/ 8a/ 8f#/	8BBn\J	.	8BBn\Jyy	.	8f#\J	.	8a/J	.	8dd#X\J	.	8dd#X\Jyy	.	.	.	.	.	.	.	.	.	.	.	.	.	.	.
=23	=23	=23	=23	=23	=23	=23	=23	=23	=23	=23	=23	=23	=23	=23	=23	=23	=23	=23	=23	=23	=23	=23	=23	=23	=23	=23	=23
!	!	!	!	!	!	!	!	!	!	!	!	!	!	!	!	!	!	!	!	!	!	!	!	!	!LO:TX:a:t=dolce	!	!
8B 8E\	8ee 8b 8g# 8e/	8E\	.	8E\yy	.	8e\	.	8g#/	.	8ee\	.	8ee\yy	.	1r	.	1r	.	2r	.	.	2r	.	.	2r	2r	.	.
8r	8r	8r	.	8ryy	.	8r	.	8r	.	8r	.	8ryy	.	.	.	.	.	.	.	.	.	.	.	.	.	.	.
4E 4EE/	4ee 4b 4g# 4e/	(4E\	.	(4E\yy	.	(4e\	.	(4g#/	.	(4ee\	.	(4ee\yy	.	.	.	.	.	.	.	.	.	.	.	.	.	.	.
4F# 4FF#/	4dd 4a 4d/	4F#\	.	4F#\yy	.	4f#\	.	4a/	.	4dd\	.	4dd\yy	.	.	.	.	.	4r	.	.	4r	.	.	4r	4r	.	.
!	!	!	!	!	!	!	!	!	!	!	!	!	!	!	!	!	!	!LO:TX:t=P:problem=brak początku łuku	!	!	!	!	!	!	!	!	!
4G# 4GG#/	4b 4e/	4G#\)	.	4G#\)yy	.	4e\)	.	4b/)	.	4b\	.	4b\yy	.	.	.	.	.	(4G#\	Be-	.	[4e\	.	.	(4e/	(4b\	Be-	.
=24	=24	=24	=24	=24	=24	=24	=24	=24	=24	=24	=24	=24	=24	=24	=24	=24	=24	=24	=24	=24	=24	=24	=24	=24	=24	=24	=24
!!LO:PB:g=original
*	*^	*	*	*	*	*	*	*	*	*	*	*	*	*	*	*	*	*	*	*	*	*	*	*	*	*	*
*	*	*^	*	*	*	*	*	*	*	*	*	*	*	*	*	*	*	*	*	*	*	*	*	*	*	*	*	*
*	*	*	*	*	*	*	*	*2\right	*	*	*	*	*	*	*	*	*	*	*	*	*	*	*	*	*	*	*	*	*
4A 4AA\	4a/	1e	2a/	(4A\	.	(4A\yy	.	[2.e\	.	(2a/	.	4cc#\)	.	4cc#\)yy	.	1r	.	1r	.	4A\)	.	.	4e\]	.	.	4a/)	4cc#\)	.	.
4c# 4C#\	4ee/	.	.	4c#\	.	4c#\yy	.	.	.	.	.	(4ee\	.	(4ee\yy	.	.	.	.	.	4c#\	-ne-	.	4e\	.	.	4a/	4ee\	-ne-	.
4B 4BB\	4dd 4g#/	.	2ryy	4B\	.	4B\yy	.	.	.	4g#/	.	4dd\	.	4dd\yy	.	.	.	.	.	4B\	-di-	.	4e\	.	.	4g#/	4dd\	-di-	.
4A 4AA/	4cc# 4a/	.	.	8.A\L)	.	8.A\L)yy	.	8.e\L]	.	8.a/L)	.	8.cc#\L)	.	8.cc#\L)yy	.	.	.	.	.	8.A\	-ctus	.	8.e\	.	.	8.a/	8.cc#\	-ctus	.
.	.	.	.	16A|\Jk	.	16A|\Jkyy	.	16e\Jk	.	16a'/Jk	.	16cc#|\Jk	.	16cc#|\Jkyy	.	.	.	.	.	16A\	qui	.	16e\	.	.	16a/	16cc#\	qui	.
*	*	*v	*v	*	*	*	*	*	*	*	*	*	*	*	*	*	*	*	*	*	*	*	*	*	*	*	*	*	*
=25	=25	=25	=25	=25	=25	=25	=25	=25	=25	=25	=25	=25	=25	=25	=25	=25	=25	=25	=25	=25	=25	=25	=25	=25	=25	=25	=25	=25
*	*	*	*	*	*	*	*	*	*	*	*2\right	*	*	*	*	*	*	*	*2\right	*	*	*2\right	*	*	*	*2\right	*	*
2.E 2.EE/	2.b 2.e/	4a\	2.E\	.	2.E\yy	.	2.e\	.	(4a/	.	2.b\	.	2.b\yy	.	1r	.	1r	.	2E\	ve-	.	2e\	.	.	(4a/	2b\	ve-	.
.	.	8g#\L	.	.	.	.	.	.	8g#/L	.	.	.	.	.	.	.	.	.	.	.	.	.	.	.	8g#/L	.	.	.
.	.	8f#\J	.	.	.	.	.	.	8f#/J	.	.	.	.	.	.	.	.	.	.	.	.	.	.	.	8f#/J)	.	.	.
.	.	2g#\	.	.	.	.	.	.	4g#/)	.	.	.	.	.	.	.	.	.	4E\	-nit	.	4e\	.	.	4g#/	4b\	-nit	.
4E#X 4EE#X/	4cc# 4c#/	.	4E#X\	.	4E#yy	.	4c#\	.	4g#/	.	4cc#\	.	4cc#\yy	.	.	.	.	.	4E#X\	in	.	4c#\	.	.	4g#/	4cc#\	in	.
=26	=26	=26	=26	=26	=26	=26	=26	=26	=26	=26	=26	=26	=26	=26	=26	=26	=26	=26	=26	=26	=26	=26	=26	=26	=26	=26	=26	=26
4F# 4FF#/	4a 4f# 4c#/	2ryy	4F#\	.	4F#\yy	.	4c#/	.	4f#/	.	4a/	.	4a/yy	.	1r	.	1r	.	4F#\	no-	.	4c#\	.	.	4f#/	4a/	no-	.
8.E#XL 8.EE#X/	8.g#L 8.c# 8.B/	.	8.E#X\L	.	8.E#\Lyy	.	8.B/L	.	8.c#/L	.	8.g#/L	.	8.g#/Lyy	.	.	.	.	.	8.E#X\	-mi-	.	8.B\	.	.	8.c#/	8.g#'/L	-mi-	.
16F#Jk 16FF#/	16f#Jk 16c# 16A/	.	16F#\Jk	.	16F#\Jkyy	.	16A/Jk	.	16c#/Jk	.	16f#/Jk	.	16f#/Jkyy	.	.	.	.	.	16F#\	-ne	.	16A\	.	.	16c#/	16f#'/Jk	-ne	.
4F# 4BB\	4d#X 4B/	4ryy	4B\	.	4B\yy	.	4B/	.	4B/	.	4e/	.	4e/yy	.	.	.	.	.	4B\	do-	.	4B\	.	.	4B/	4d#X/	do-	.
4B 4F# 4BB\	8.cc#/L	4d#\	4BB/	.	4BB/yy	.	4B/	.	4d#X/	.	8.cc#/L	.	8.cc#/Lyy	.	.	.	.	.	4BB/	-mi-	.	4B\	.	.	4d#X/	(8.cc#/L	-mi-	.
.	16b/Jk	.	.	.	.	.	.	.	.	.	16b/Jk	.	16b/Jkyy	.	.	.	.	.	.	.	.	.	.	.	.	16b/Jk)	.	.
=27	=27	=27	=27	=27	=27	=27	=27	=27	=27	=27	=27	=27	=27	=27	=27	=27	=27	=27	=27	=27	=27	=27	=27	=27	=27	=27	=27	=27
4B 4G# 4E\	4e/	4e\	4E\	.	4E\yy	.	4A/	.	4e/	.	4g#/	.	4g#/yy	.	1r	.	1r	.	4E\	-ni	.	4B\	.	.	4e/	4g#/	-ni	.
4E 4EE/	4ee 4b 4g# 4e/	4ryy	(4E\	.	(4E\yy	.	(4e\	.	(4g#/	.	(4ee\	.	(4ee\yy	.	.	.	.	.	4r	.	.	4r	.	.	4r	4r	.	.
4F# 4FF#/	4dd 4a 4d/	2ryy	4F#\	.	4F#\yy	.	4f#\	.	4a/	.	4dd\	.	4dd\yy	.	.	.	.	.	4r	.	.	4r	.	.	4r	4r	.	.
4G# 4GG#/	4b 4g# 4e/	.	4G#\	.	4G#yy	.	4e\	.	4b/)	.	4b\	.	4b\yy	.	.	.	.	.	4G#\	in	.	4e\	.	.	4e/	4b\	in	.
=28	=28	=28	=28	=28	=28	=28	=28	=28	=28	=28	=28	=28	=28	=28	=28	=28	=28	=28	=28	=28	=28	=28	=28	=28	=28	=28	=28	=28
*	*	*^	*	*	*	*	*	*	*	*	*	*	*	*	*	*	*	*	*	*	*	*	*	*	*	*	*	*
4A 4AA\	4cc#/	1e	2a	4A\)	.	4A)yy	.	4e\)	.	4a/	.	4cc#\)	.	4cc#\)yy	.	1r	.	1r	.	4A\	no-	.	4e\	.	.	4a/	4cc#\	no-	.
4c# 4C#\	4ee/	.	.	8.c#\L	.	8.c#\Lyy	.	8.e\L	.	8.a/L	.	8.ee\L	.	8.ee\Lyy	.	.	.	.	.	8.c#\	-mi-	.	8.e\	.	.	8.a/	8.ee\	-mi-	.
.	.	.	.	16c#\Jk	.	16c#Jkyy	.	16e\Jk	.	16a/Jk	.	16ee\Jk	.	16ee\Jkyy	.	.	.	.	.	16c#\	-ne	.	16e\	.	.	16a/	16ee\	-ne	.
4B 4BB\	4dd 4g#/	.	2ryy	4B\	.	4B\yy	.	4e\	.	4g#/	.	4dd\	.	4dd\yy	.	.	.	.	.	4B\	Do-	.	4e\	.	.	4g#/	4dd\	Do-	.
4A 4AA\	4cc# 4a/	.	.	4A\	.	4A\yy	.	4e\	.	4a/	.	4cc#\	.	4cc#\yy	.	.	.	.	.	4A\	-mi-	.	4e\	.	.	4a/	4cc#\	-mi-	.
=29	=29	=29	=29	=29	=29	=29	=29	=29	=29	=29	=29	=29	=29	=29	=29	=29	=29	=29	=29	=29	=29	=29	=29	=29	=29	=29	=29	=29	=29
!!LO:PB:g=original
*	*	*	*	*	*	*2\right	*	*	*	*	*	*	*	*	*	*	*	*	*	*	*	*	*	*	*	*	*	*	*
2.E 2.EE/	2.b/	4a\	1e	2.E\	.	2.E\	.	2.e\	.	(4a/	.	2.b\	.	2.b\yy	.	1r	.	1r	.	2.E\	-ni	.	2.e\	.	.	(4a/	2.b\	-ni	.
.	.	8g#\L	.	.	.	.	.	.	.	8g#/L	.	.	.	.	.	.	.	.	.	.	.	.	.	.	.	8g#/L	.	.	.
.	.	8f#\J	.	.	.	.	.	.	.	8f#/J	.	.	.	.	.	.	.	.	.	.	.	.	.	.	.	8f#/J	.	.	.
.	.	2g#\	.	.	.	.	.	.	.	4g#/)	.	.	.	.	.	.	.	.	.	.	.	.	.	.	.	4g#/)	.	.	.
4D 4DD/	8.b/L	.	.	4D\	.	4D\	.	4e\	.	4g#/	.	8.b\L	.	8.b\Lyy	.	.	.	.	.	4E\	in	.	4e\	.	.	4g#/	(8.b\L	in	.
.	16ee/Jk	.	.	.	.	.	.	.	.	.	.	16ee\Jk	.	16ee\Jkyy	.	.	.	.	.	.	.	.	.	.	.	.	16ee\Jk)	.	.
*	*	*v	*v	*	*	*	*	*	*	*	*	*	*	*	*	*	*	*	*	*	*	*	*	*	*	*	*	*	*
=30	=30	=30	=30	=30	=30	=30	=30	=30	=30	=30	=30	=30	=30	=30	=30	=30	=30	=30	=30	=30	=30	=30	=30	=30	=30	=30	=30	=30
4C# 4CC#/	4ee 4a/ 4e	4ryy	4C#/	.	4C#	.	4e\	.	4a/	.	4ee\	.	4ee\yy	.	1r	.	1r	.	4C#/	no-	.	4e\	.	.	4a/	4ee\	no-	.
.	8qee/	.	.	.	.	.	.	.	.	.	(8qee/	.	(8qee/yy	.	.	.	.	.	.	.	.	.	.	.	.	(8qee/	.	.
8.BBL 8.BBB/	8.dd/L	4f#\	8.BB/L	.	8.BBL	.	8.f#\L	.	8.f#/L	.	8.dd\L)	.	8.dd\L)yy	.	.	.	.	.	8.BB/	-mi-	.	8.f#\	.	.	8.f#/	8.dd\)	-mi-	.
16DJk 16DD/	16b/Jk	.	16D/Jk	.	16DJk	.	16f#\Jk	.	16f#/Jk	.	16b|\Jk	.	16b|\Jkyy	.	.	.	.	.	16D/	-ne	.	16f#\	.	.	16f#/	16b\	-ne	.
2E 2EE/	4cc# 4a/	2e\	4E\	.	4E\	.	4e\	.	4a/	.	4cc#\	.	4cc#\yy	.	.	.	.	.	4E\	Do-	.	4e\	.	.	4a/	4cc#\	Do-	.
.	4b 4g#/	.	4E\	.	4E\	.	4e\	.	4g#/	.	4b\	.	4b\yy	.	.	.	.	.	4E\	-mi-	.	4e\	.	.	4g#/	4b\	-mi-	.
=31	=31	=31	=31	=31	=31	=31	=31	=31	=31	=31	=31	=31	=31	=31	=31	=31	=31	=31	=31	=31	=31	=31	=31	=31	=31	=31	=31	=31
*	*	*^	*	*	*	*	*	*	*	*	*	*	*	*	*	*	*	*	*	*	*	*	*	*	*	*	*	*
2A 2AA/	2cc# 2a/	1e	2ryy	2AA/	.	2AA	.	2e\	.	2a/	.	2cc#\	.	2cc#\yy	.	1r	.	1r	.	2AA/	-ni	.	2e\	.	.	2a/	2cc#\	-ni	.
4E 4EE/	4.b/	.	2g#/	(4.E\	.	(4E.\	.	2e\	.	2g#/	.	(4.b\	.	(4.b\yy	.	.	.	.	.	(4.E\	in	.	2e\	.	.	2g#/	(4.b\	in	.
4D 4DD/	.	.	.	.	.	.	.	.	.	.	.	.	.	.	.	.	.	.	.	.	.	.	.	.	.	.	.	.	.
.	8ee/	.	.	8D\)	.	8D)	.	.	.	.	.	8ee\)	.	8ee\)yy	.	.	.	.	.	8D\)	.	.	.	.	.	.	8ee\)	.	.
*	*	*v	*v	*	*	*	*	*	*	*	*	*	*	*	*	*	*	*	*	*	*	*	*	*	*	*	*	*	*
=32	=32	=32	=32	=32	=32	=32	=32	=32	=32	=32	=32	=32	=32	=32	=32	=32	=32	=32	=32	=32	=32	=32	=32	=32	=32	=32	=32	=32
4C# 4CC#/	4ee 4a/ 4e	4ryy	4C#/	.	4C#	.	4e\	.	4a/	.	4ee\	.	4ee\yy	.	1r	.	1r	.	4C#/	no-	.	4e\	.	.	4a/	4ee\	no-	.
.	8qee/	.	.	.	.	.	.	.	.	.	(8qee/	.	(8qee/yy	.	.	.	.	.	.	.	.	.	.	.	.	(8qee/	.	.
8.BBL 8.BBB/	8.dd/L	4f#\	8.BB/L	.	8.BBL	.	8.f#\L	.	8.f#/L	.	8.dd\L)	.	8.dd\L)yy	.	.	.	.	.	8.AA/	-mi-	.	8.f#\	.	.	8.f#/	8.dd\)	-mi-	.
16DJk 16DD/	16b/Jk	.	16D/Jk	.	16DJk	.	16d\Jk	.	16f#/Jk	.	16b\Jk	.	16b\Jkyy	.	.	.	.	.	16C#/	-ne	.	16d\	.	.	16f#/	16b\	-ne	.
2E 2EE/	4a/	4e\	4..E\	.	4..E\	.	4c#\	.	4..e/	.	8.a/L	.	8.a/Lyy	.	.	.	.	.	4..E\	do-	.	(4c#\	.	.	4..e/	(>8.a/L	do-	.
.	.	.	.	.	.	.	.	.	.	.	(16e/K	.	(16e/Kyy	.	.	.	.	.	.	.	.	.	.	.	.	16e/Jk	.	.
.	8.cc#/L	8.e\L	.	.	.	.	8.e\L	.	.	.	8.cc#/)	.	8.cc#/)yy	.	.	.	.	.	.	.	.	8.e\)	.	.	.	8.cc#/)	.	.
.	16b/Jk 16g#	16d\Jk	16E\	.	16E\Jk	.	16d\Jk	.	16g#/	.	16b|/Jk	.	16b|/Jkyy	.	.	.	.	.	16E\	-mi-	.	16d\	.	.	16g#/	16b/	-mi-	.
*	*v	*v	*	*	*	*	*	*	*	*	*	*	*	*	*	*	*	*	*	*	*	*	*	*	*	*	*	*
=33	=33	=33	=33	=33	=33	=33	=33	=33	=33	=33	=33	=33	=33	=33	=33	=33	=33	=33	=33	=33	=33	=33	=33	=33	=33	=33	=33
!	!	!	!	!	!	!	!	!	!	!	!	!	!	!	!	!	!LO:DY:a	!	!	!	!	!	!	!	!	!	!
4A 4AA\	4a 4c#/	4A\	.	4A\	.	4c#\	.	4a/	.	4a/	.	4a/yy	.	4r	.	4r	f	4A\	-ni,	.	4c#\	.	.	4a/	4a/	-ni,	.
!	!	!	!LO:DY:rj	!	!LO:DY:rj	!	!LO:DY:rj	!	!	!	!LO:DY:rj	!	!LO:DY:rj	!	!	!	!	!	!	!	!	!	!	!	!	!	!
4A\	4a/	8.A\L	f	8.A\L	f	8.A/L	f	8.a/L	.	8.a/L	f	8.a/Lyy	f	8.A\	Be-	8.a/	.	4r	.	.	4r	.	.	4r	4r	.	.
.	.	16A\Jk	.	16AJ\k	.	16A/Jk	.	16a/Jk	.	16a/Jk	.	16a/Jkyy	.	16A\	-ne-	16a/	.	.	.	.	.	.	.	.	.	.	.
4c#\	4cc#/	4c#\	.	4c#\	.	4c#/	.	4cc#\	.	4cc#/	.	4cc#/yy	.	4c#\	-di-	4cc#\	.	2r	.	.	2r	.	.	2r	2r	.	.
8.A\L	8.a/L	8.A\L	.	8.A\L	.	8.A/L	.	8.a/L	.	8.a/L	.	8.a/Lyy	.	8.A\	-ctus	8.a/	.	.	.	.	.	.	.	.	.	.	.
16c#\Jk	16cc#/Jk	16c#\Jk	.	16c#\Jk	.	16c#/Jk	.	16cc#/Jk	.	16cc#/Jk	.	16cc#/Jkyy	.	16c#\	qui	16cc#\	.	.	.	.	.	.	.	.	.	.	.
=34	=34	=34	=34	=34	=34	=34	=34	=34	=34	=34	=34	=34	=34	=34	=34	=34	=34	=34	=34	=34	=34	=34	=34	=34	=34	=34	=34
!!LO:PB:g=original
*	*	*	*	*	*	*	*	*	*	*	*	*	*	*2\right	*	*2\right	*	*	*	*	*	*	*	*	*	*	*
2e\	2ee\	2e\	.	2e\yy	.	2e\	.	2ee\	.	2ee\	.	2ee\yy	.	2e\	ve-	2ee\	.	2r	.	.	2r	.	.	2r	2r	.	.
4E\	4e/	4E\	.	4E\yy	.	4E/	.	4e/	.	4e/	.	4e/yy	.	4E\	-nit	4e/	.	4r	.	.	4r	.	.	4r	4r	.	.
!	!	!	!LO:DY:a:rj	!	!LO:DY:a:rj	!	!	!	!	!	!LO:DY:rj	!	!LO:DY:rj	!	!	!	!	!	!	!	!	!	!	!	!	!	!
4G#\	4dd 4b 4e/	4G#\	p	4G#\yy	p	4e\	.	4b/	.	4dd\	p	4dd\yy	p	4r	.	4r	.	4G#\	in	.	4e\	.	.	4b/	4dd\	in	.
=35	=35	=35	=35	=35	=35	=35	=35	=35	=35	=35	=35	=35	=35	=35	=35	=35	=35	=35	=35	=35	=35	=35	=35	=35	=35	=35	=35
4A\	4cc# 4a 4e/	(4A\	.	(4A\yy	.	4e\	.	(4a/	.	(4cc#\	.	(4cc#\yy	.	2r	.	2r	.	4A\	no-	.	4e\	.	.	4a/	4cc#\	no-	.
4d\	4b 4g# 4e/	4d\	.	4d\yy	.	4e\	.	4g#/	.	4b\	.	4b\yy	.	.	.	.	.	4d\	-mi-	.	4e\	.	.	4g#/	4b\	-mi-	.
4c#\	4a 4e/	4c#\)	.	4c#\)yy	.	4e\	.	4a/)	.	4a/)	.	4a/)yy	.	4r	.	4r	.	4c#\	-ne	.	4e\	.	.	4a/	4a\	-ne	.
!	!	!	!LO:DY:a:rj	!	!LO:DY:a:rj	!	!	!	!	!	!LO:DY:a:rj	!	!LO:DY:a:rj	!	!	!	!	!	!	!	!	!	!	!	!	!	!
4A\	4a/	4A\	f	4A\yy	f	4A/	.	4a/	.	4a/	f	4a/yy	f	4A\	in	4a/	.	4r	.	.	4r	.	.	4r	4r	.	.
=36	=36	=36	=36	=36	=36	=36	=36	=36	=36	=36	=36	=36	=36	=36	=36	=36	=36	=36	=36	=36	=36	=36	=36	=36	=36	=36	=36
4cn\	4ccn\	4cn\	.	4cn\yy	.	4cn\	.	4ccn\	.	4ccn\	.	4ccn\yy	.	4cn\	no-	4ccn\	.	1r	.	.	1r	.	.	1r	1r	.	.
8.A\L	8.a\L	8.A\L	.	8.A\Lyy	.	8.A/L	.	8.a\L	.	8.a\L	.	8.a\Lyy	.	8.A\	-mi-	8.a/	.	.	.	.	.	.	.	.	.	.	.
16c\Jk	16cc\Jk	16c\Jk	.	16c\Jkyy	.	16c/Jk	.	16cc\Jk	.	16cc\Jk	.	16cc\Jkyy	.	16c\	-ne	16cc\	.	.	.	.	.	.	.	.	.	.	.
2fn\	2ffn\	4..fn\	.	4..fn\yy	.	4..fn\	.	4..ffn\	.	4..ffn\	.	4..ffn\yy	.	4..fn\	Do-	4..ffn\	.	.	.	.	.	.	.	.	.	.	.
.	.	16f\	.	16f\yy	.	16f\	.	16ff\	.	16ff\	.	16ff\yy	.	16f\	-mi-	16ff\	.	.	.	.	.	.	.	.	.	.	.
=37	=37	=37	=37	=37	=37	=37	=37	=37	=37	=37	=37	=37	=37	=37	=37	=37	=37	=37	=37	=37	=37	=37	=37	=37	=37	=37	=37
4cn\	4ccn\	4cn\	.	4c\yy	.	4cn\	.	4ccn\	.	4ccn\	.	4ccn\yy	.	4cn\	-ni,	4ccn\	.	2r	.	.	4r	.	.	4r	4r	.	.
!	!	!	!	!	!	!	!	!	!	!	!LO:DY:rj	!	!LO:DY:rj	!	!	!	!	!	!	!	!	!	!	!	!	!	!
4e\	4dd 4b-X\	4r	.	4ryy	.	(4e\	.	(4b-X/	.	(4dd\	p	(4dd\yy	p	4r	.	4r	.	.	.	.	4e\	.	.	(4b-X/	(4dd\	Do-	.
4fn\	4cc 4a\	4r	.	4ryy	.	4fn\	.	4a/	.	4cc\	.	4cc\yy	.	2r	.	2r	.	4r	.	.	4fn\	.	.	4a/)	4ccn\)	.	.
!	!	!	!LO:DY:rj	!	!LO:DY:rj	!	!	!	!	!	!	!	!	!	!	!	!	!	!	!	!	!	!	!	!	!	!
4c#X 4C#X\	4b-X 4gn/	4C#X/	p	4C#X/yy	p	4e\	.	4gn/	.	4b-X\	.	4b-X\yy	.	.	.	.	.	8.C#X/	Do-	.	4e\	.	.	4gn/	4b-X\	-mi-	.
.	.	.	.	.	.	.	.	.	.	.	.	.	.	.	.	.	.	16C#/	-mi-	.	.	.	.	.	.	.	.
=38	=38	=38	=38	=38	=38	=38	=38	=38	=38	=38	=38	=38	=38	=38	=38	=38	=38	=38	=38	=38	=38	=38	=38	=38	=38	=38	=38
4d 4D\	4a 4fn/	4D\	.	4D\yy	.	4fn\)	.	4fn/)	.	4a/)	.	4a/)yy	.	4r	.	4r	.	4D\	-ni	.	4fn\	.	.	4fn/	4a/	-ni	.
!	!	!	!	!	!	!	!	!LO:TX:t=P:problem=wartości od DWA do końca taktu skopiowane z Vn I	!LO:DY:rj	!	!LO:DY:rj	!	!LO:DY:rj	!	!	!	!	!	!	!	!	!	!	!	!	!	!
!	!	!	!	!	!	!	!	!LO:TX:a:t=unis	!	!	!	!	!	!	!	!	!	!	!	!	!	!	!	!	!	!	!
8.fnL 8.Fn\	8.ffn\L	8.Fn\L	f	8.F\Lyy	f	8.f\L	.	8.ffn\Lyy	f	8.ffn\L	f	8.ffn\Lyy	f	8.fn 8.Fn\	Be-	8.ffn\	.	4r	.	.	4r	.	.	4r	4r	.	.
16eJk 16E\	16ee\Jk	16E\Jk	.	16E\Jkyy	.	16e\Jk	.	16ee\Jkyy	.	16ee\Jk	.	16ee\Jkyy	.	16e 16E\	-ne-	16ee\	.	.	.	.	.	.	.	.	.	.	.
4d#X 4D#X\	4dd#X\	4D#X\	.	4D#X\yy	.	4d#X\	.	4dd#X\yy	.	4dd#X\	.	4dd#X\yy	.	4d#X 4D#X\	-di-	4dd#X\	.	2r	.	.	2r	.	.	2r	2r	.	.
8.cnL 8.Cn\	8.ccn\L	8.cn\L	.	8.cn\Lyy	.	8.cn/L	.	8.ccn/Lyy	.	8.ccn/L	.	8.ccn/Lyy	.	8.cn 8.Cn\	-ctus	8.ccn\	.	.	.	.	.	.	.	.	.	.	.
16AJk 16AA\	16a\Jk	16A\Jk	.	16A\Jkyy	.	16A/Jk	.	16a/Jkyy	.	16a/Jk	.	16a/Jkyy	.	16A 16AA\	qui	16a/	.	.	.	.	.	.	.	.	.	.	.
=39	=39	=39	=39	=39	=39	=39	=39	=39	=39	=39	=39	=39	=39	=39	=39	=39	=39	=39	=39	=39	=39	=39	=39	=39	=39	=39	=39
!!LO:PB:g=original
*	*	*	*	*	*	*	*	*	*	*	*	*	*	*^	*	*	*	*	*	*	*	*	*	*	*	*	*
*	*	*	*	*	*	*	*	*2\right	*	*	*	*	*	*	*	*	*	*	*	*	*	*	*	*	*	*	*	*
2e 2E\	2ee\	(2e\	.	(2e\yy	.	(2e\	.	(2ee\	.	(2ee\	.	(2ee\yy	.	2e\	2E\	ve-	2ee\	.	1r	.	.	1r	.	.	2r	2r	.	.
4E\	4e/	4E\)	.	4E\)yy	.	4E/)	.	4e/)	.	4e/)	.	4e/)yy	.	4E/	4E\	-nit,	4e/	.	.	.	.	.	.	.	4r	4r	.	.
!	!	!	!	!	!	!	!	!	!	!	!LO:DY:rj	!	!LO:DY:rj	!	!	!	!	!	!	!	!	!	!	!	!	!	!	!
4r	8bnL 8g#X/	4r	.	4ryy	.	4r	.	(8g#/L	.	(8bn\L	p	(8bn\Lyy	p	4r	4ryy	.	4r	.	.	.	.	.	.	.	(8g#/L	(8bn\L	in	.
.	8cc#J 8a/	.	.	.	.	.	.	8a/J)	.	8cc#\J)	.	8cc#\J)yy	.	.	.	.	.	.	.	.	.	.	.	.	8a/J)	8cc#\J)	.	.
*	*	*	*	*	*	*	*	*	*	*	*	*	*	*v	*v	*	*	*	*	*	*	*	*	*	*	*	*	*
=40	=40	=40	=40	=40	=40	=40	=40	=40	=40	=40	=40	=40	=40	=40	=40	=40	=40	=40	=40	=40	=40	=40	=40	=40	=40	=40	=40
2r	8.ddL 8.b\	2r	.	2ryy	.	1r	.	8.b/L	.	8.dd\L	.	8.dd\Lyy	.	1r	.	1r	.	2r	.	.	1r	.	.	8.b/	8.dd\	no-	.
.	16cc#Jk 16a\	.	.	.	.	.	.	16a/Jk	.	16cc#\Jk	.	16cc#\Jkyy	.	.	.	.	.	.	.	.	.	.	.	16a/	16cc#\	-mi-	.
.	4..b 4..g#/	.	.	.	.	.	.	4..g#/	.	4..b\	.	4..b\yy	.	.	.	.	.	.	.	.	.	.	.	4..g#/	4..b\	-ne	.
8.r	.	8.r	.	8.ryy	.	.	.	.	.	.	.	.	.	.	.	.	.	8.r	.	.	.	.	.	.	.	.	.
16G#X\KL	16ff#KL 16dd\	16G#'\KL	.	16G#'\KLyy	.	.	.	16dd\	.	16ff#'\	.	16ff#'\yy	.	.	.	.	.	(16G#X\KL	Do-	.	.	.	.	(16dd\KL	(16ff#\KL	Do-	.
8.A\	8.ee 8.cc#\	8.A'\	.	8.A'\yy	.	.	.	8.cc#\L	.	8.ee'\L	.	8.ee'\Lyy	.	.	.	.	.	8.A\J)	.	.	.	.	.	8.cc#\J)	8.ee\J)	.	.
16E\Jk	16ddJk 16b\	16E'\Jk	.	16E'\Jkyy	.	.	.	16b\Jk	.	16dd'\Jk	.	16dd'\Jkyy	.	.	.	.	.	16E\	-mi-	.	.	.	.	16b\	16dd\	-mi-	.
=41	=41	=41	=41	=41	=41	=41	=41	=41	=41	=41	=41	=41	=41	=41	=41	=41	=41	=41	=41	=41	=41	=41	=41	=41	=41	=41	=41
*	*^	*	*	*	*	*	*	*	*	*	*	*	*	*	*	*	*	*	*	*	*	*	*	*	*	*	*
4A 4AA\	4cc# 4a/	1e	4A\	.	4A\yy	.	4r	.	4a/	.	4cc#\	.	4cc#\yy	.	1r	.	1r	.	4A\	-ni	.	4r	.	.	4a/	4cc#\	-ni	.
!	!	!	!	!	!	!	!	!	!	!	!	!	!	!	!	!	!	!	!	!	!	!	!	!	!	!LO:TX:a:i:t=dolce	!	!
4c# 4C#\	4ee/	.	8.c#\L	.	8.c#\Lyy	.	8.e\L	.	8.a/L	.	8.ee\L	.	8.ee\Lyy	.	.	.	.	.	8.c#\	Be-	.	8.e\	Be-	.	8.a/	8.ee\	Be-	.
.	.	.	16c#\Jk	.	16c#\Jkyy	.	16e\Jk	.	16a/Jk	.	16ee\Jk	.	16ee\Jkyy	.	.	.	.	.	16c#\	-ne-	.	16e\	-ne-	.	16a/	16ee\	-ne-	.
4B 4BB\	4dd 4g#/	.	4B\	.	4B\yy	.	4e\	.	4g#/	.	4dd\	.	4dd\yy	.	.	.	.	.	4B\	-di-	.	4e\	-dic-	.	4g#/	4dd\	-dic-	.
4A 4AA\	4cc# 4a/	.	8.A\L	.	8.A\Lyy	.	8.e\L	.	8.a/L	.	8.cc#\L	.	8.cc#\Lyy	.	.	.	.	.	8.A\	-ctus	.	8.e\	-tus	.	8.a/	8.cc#\	-tus	.
.	.	.	16A\Jk	.	16A\Jkyy	.	16e\Jk	.	16a/Jk	.	16cc#\Jk	.	16cc#\Jkyy	.	.	.	.	.	16A\	qui	.	16e\	qui	.	16a/	16cc#\	qui	.
=42	=42	=42	=42	=42	=42	=42	=42	=42	=42	=42	=42	=42	=42	=42	=42	=42	=42	=42	=42	=42	=42	=42	=42	=42	=42	=42	=42	=42
2.E 2.EE/	2.b 2.e/	4a\	2.E\	.	2.E\yy	.	2.e\	.	(4a/	.	2.b\	.	2.b\yy	.	1r	.	1r	.	2E\	ve-	.	2e\	.	.	(4a/	2b\	ve-	.
.	.	8g#\L	.	.	.	.	.	.	8g#/L	.	.	.	.	.	.	.	.	.	.	.	.	.	.	.	8g#/L	.	.	.
.	.	8f#\J	.	.	.	.	.	.	8f#/J)	.	.	.	.	.	.	.	.	.	.	.	.	.	.	.	8f#/J)	.	.	.
.	.	4g#\	.	.	.	.	.	.	4g#/	.	.	.	.	.	.	.	.	.	4E\	-nit	.	4e\	.	.	4g#/	4b\	-nit	.
4E#X 4EE#X/	4cc# 4g# 4c#/	4ryy	4E#X^\	.	4E#X^\yy	.	4c#\	.	4g#/	.	4cc#^\	.	4cc#^\yy	.	.	.	.	.	4E#X\	in	.	4c#\	.	.	4g#/	4cc#\	in	.
=43	=43	=43	=43	=43	=43	=43	=43	=43	=43	=43	=43	=43	=43	=43	=43	=43	=43	=43	=43	=43	=43	=43	=43	=43	=43	=43	=43	=43
4F# 4FF#/	4a 4f# 4c#/	2ryy	(4F#\	.	(4F#\yy	.	(4c#/	.	(4f#/	.	(4a/	.	(4a/yy	.	1r	.	1r	.	4F#\	no-	.	4c#\	.	.	4f#/	4a/	no-	.
8.E#XL 8.EE#X/	8.g#L 8.c# 8.B/	.	8.E#X\L)	.	8.E#X\L)yy	.	8.B/L)	.	8.c#/L)	.	8.g#/L)	.	8.g#/L)yy	.	.	.	.	.	8.E#X\	-mi-	.	8.B\	.	.	8.c#/	8.g#/	-mi-	.
16F#Jk 16FF#/	16f#Jk 16c# 16A/	.	16F#|\Jk	.	16F#|\Jkyy	.	16A|/Jk	.	16c#/Jk	.	16f#|/Jk	.	16f#|/Jkyy	.	.	.	.	.	16F#\	-ne	.	16A\	.	.	16c#/	16f#/	-ne	.
4F# 4BB\	4d#X 4B/	4ryy	4BB/	.	4BB/yy	.	4B|/	.	4B/	.	4d#X|/	.	4d#X|/yy	.	.	.	.	.	4B\	do-	.	4B\	.	.	4B/	8ryy	.	.
.	.	.	.	.	.	.	.	.	.	.	.	.	.	.	.	.	.	.	.	.	.	.	.	.	.	(8d/L	do-	.
4B 4F# 4BB\	8.cc#/L	4d#\	4BB/	.	4BB/yy	.	4B/	.	4d#X/	.	(8.cc#/L	.	(8.cc#/Lyy	.	.	.	.	.	4BB/	-mi-	.	4B\	.	.	4d#X/	8.cc#/J)	.	.
.	16b/Jk	.	.	.	.	.	.	.	.	.	16b/Jk)	.	16b/Jk)yy	.	.	.	.	.	.	.	.	.	.	.	.	16b\	-mi-	.
*	*v	*v	*	*	*	*	*	*	*	*	*	*	*	*	*	*	*	*	*	*	*	*	*	*	*	*	*	*
=44	=44	=44	=44	=44	=44	=44	=44	=44	=44	=44	=44	=44	=44	=44	=44	=44	=44	=44	=44	=44	=44	=44	=44	=44	=44	=44	=44
!!LO:PB:g=original
4B 4G# 4E\	4e/	4E\	.	4E\yy	.	4B/	.	4e/	.	4g#/	.	4g#/yy	.	1ryy	.	1ryy	.	4E\	-ni	.	4B\	.	.	4e/	4g#/	-ni	.
4E 4EE/	4ee 4b 4g# 4e/	(4E\	.	(4E\yy	.	(4e\	.	(4g#/	.	(4ee\	.	(4ee\yy	.	.	.	.	.	4r	.	.	4r	.	.	4r	4r	.	.
4F# 4FF#/	4dd 4a 4d/	4F#\	.	4F#\yy	.	4f#\	.	4a/	.	4dd\	.	4dd\yy	.	.	.	.	.	4r	.	.	4r	.	.	4r	4r	.	.
4G# 4GG#/	4b 4g# 4e/	4G#\	.	4G#\yy	.	4e\)	.	4b/)	.	4b\)	.	4b\)yy	.	.	.	.	.	4G#\	in	.	4e\	.	.	4e/	4b\	in	.
=45	=45	=45	=45	=45	=45	=45	=45	=45	=45	=45	=45	=45	=45	=45	=45	=45	=45	=45	=45	=45	=45	=45	=45	=45	=45	=45	=45
*	*^	*	*	*	*	*	*	*	*	*	*	*	*	*	*	*	*	*	*	*	*	*	*	*	*	*	*
4A 4AA\	4cc# 4a/	4e/	4A\)	.	4A\)yy	.	4e\	.	4a/	.	4cc#\	.	4cc#\yy	.	1ryy	.	1ryy	.	4A\	no-	.	4e\	.	.	4a/	4cc#\	no-	.
4c# 4C#\	4ee 4a/	2.e\	8.c#\L	.	8.c#\Lyy	.	8.e\L	.	8.a/L	.	8.ee\L	.	8.ee\Lyy	.	.	.	.	.	8.c#\L	-mi-	.	8.e\	.	.	8.a/	8.ee\	-mi-	.
.	.	.	16c#\Jk	.	16c#\Jkyy	.	16e\Jk	.	16a/Jk	.	16ee\Jk	.	16ee\Jkyy	.	.	.	.	.	16c#\Jk	-ne	.	16e\	.	.	16a/	16ee\	-ne	.
4B 4BB\	4dd 4g#/	.	4B\	.	4B\yy	.	4e\	.	4g#/	.	4dd\	.	4dd\yy	.	.	.	.	.	4B\	Do-	.	4e\	.	.	4g#/	4dd\	Do-	.
4A 4AA/	4cc# 4a/	.	4A\	.	4A\yy	.	4e\	.	4a/	.	4cc#\	.	4cc#\yy	.	.	.	.	.	4A\	-mi-	.	4e\	.	.	4a/	4cc#\	-mi-	.
=46	=46	=46	=46	=46	=46	=46	=46	=46	=46	=46	=46	=46	=46	=46	=46	=46	=46	=46	=46	=46	=46	=46	=46	=46	=46	=46	=46	=46
!	!	!	!	!LO:DY:a:rj	!	!LO:DY:a:rj	!	!	!	!LO:DY:a:rj	!	!LO:DY:a:rj	!	!LO:DY:a:rj	!	!	!	!	!	!	!LO:DY:a:rj	!	!	!	!	!	!	!LO:DY:a:rj
2A 2D\	2ff#/	2a 2f#/	2D\	f	2D\yy	f	2f#\	.	2a/	f	2ff#\	f	2ff#\yy	f	1ryy	.	1ryy	.	2D\	-ni	f	2f#\	.	.	2a/	2ff#\	-ni	f
2B 2G# 2E 2D\	4b/	2g# 2e\	2D\	.	2D\yy	.	2e\	.	2g#/	.	4b\	.	4b\yy	.	.	.	.	.	2E\	in	.	2e\	.	.	2g#/	4b\	in	.
.	8cc#/L	.	.	.	.	.	.	.	.	.	(8cc#\L	.	(8cc#\Lyy	.	.	.	.	.	.	.	.	.	.	.	.	(8cc#\L	.	.
.	8dd/J	.	.	.	.	.	.	.	.	.	8dd\J)	.	8dd\J)yy	.	.	.	.	.	.	.	.	.	.	.	.	8dd\J)	.	.
=47	=47	=47	=47	=47	=47	=47	=47	=47	=47	=47	=47	=47	=47	=47	=47	=47	=47	=47	=47	=47	=47	=47	=47	=47	=47	=47	=47	=47
*^	*	*	*	*	*	*	*	*	*	*	*	*	*	*	*	*	*	*	*	*	*	*	*	*	*	*	*	*
2A 2E 2C#\	2ryy	2ee/	2a 2e/	2C#/	.	2C#/yy	.	2e\	.	2a/	.	2ee\	.	2ee\yy	.	1ryy	.	1ryy	.	2C#/	no-	.	2e\	.	.	2a/	2ee\	no-	.
.	.	.	.	.	.	.	.	.	.	.	.	(8qee/	.	(8qee/yy	.	.	.	.	.	.	.	.	.	.	.	.	(8qee/	.	.
4B/	2D\	4dd/	2f#\	4D\	.	4D\yy	.	4B/	.	4f#/	.	4dd\)	.	4dd\)yy	.	.	.	.	.	4D\	-mi-	.	4B\	.	.	4f#/	4dd\)	-mi-	.
4F#/	.	4b/	.	4D\	.	4D\yy	.	(8.d\L	.	4f#/	.	4b\	.	4b\yy	.	.	.	.	.	4D\	-ne	.	(8.d\L	.	.	4f#/	4b\	-ne	.
.	.	.	.	.	.	.	.	16f#\Jk)	.	.	.	.	.	.	.	.	.	.	.	.	.	.	16f#\Jk)	.	.	.	.	.	.
*v	*v	*	*	*	*	*	*	*	*	*	*	*	*	*	*	*	*	*	*	*	*	*	*	*	*	*	*	*	*
*	*v	*v	*	*	*	*	*	*	*	*	*	*	*	*	*	*	*	*	*	*	*	*	*	*	*	*	*	*
=48	=48	=48	=48	=48	=48	=48	=48	=48	=48	=48	=48	=48	=48	=48	=48	=48	=48	=48	=48	=48	=48	=48	=48	=48	=48	=48	=48
2E\	8cc#L 8e/	2..E\	.	2..E\yy	.	(8e\L	.	(2..e/	.	(8cc#\L	.	(8cc#\Lyy	.	1ryy	.	1ryy	.	2..E\	do-	.	(8e\L	.	.	2..e/	(8cc#\L	do-	.
.	8bJ 8d/	.	.	.	.	8d\J	.	.	.	8b\J	.	8b\Jyy	.	.	.	.	.	.	.	.	8d\J	.	.	.	8b\J	.	.
!	!	!	!	!	!	!LO:N:vis=4..	!	!	!	!	!	!	!	!	!	!	!	!	!	!	!	!	!	!	!	!	!
.	4.a 4.c#/	.	.	.	.	4.c#\)	.	.	.	4.a/)	.	4.a/)yy	.	.	.	.	.	.	.	.	4.c#\	.	.	.	4.a/	.	.
2E 2EE/	.	.	.	.	.	.	.	.	.	.	.	.	.	.	.	.	.	.	.	.	.	.	.	.	.	.	.
.	16g#LL 16B/	.	.	.	.	(16B/LL	.	.	.	(16g#/LL	.	(16g#/LLyy	.	.	.	.	.	.	.	.	16B\LL	.	.	.	16g#/LL	.	.
.	16aJJ 16c#/	.	.	.	.	16c#/JJ	.	.	.	16a/JJ	.	16a/JJyy	.	.	.	.	.	.	.	.	16c#\JJ)	.	.	.	16a/JJ	.	.
.	8bL 8d/	.	.	.	.	8d/L	.	.	.	8b/L	.	8b/Lyy	.	.	.	.	.	.	.	.	8d\	.	.	.	8b/)	.	.
.	8g#J 8B/	8E\	.	8E\yy	.	8B/J)	.	8d/)	.	8g#/J)	.	8g#/J)yy	.	.	.	.	.	8E\	-mi	.	8B\	.	.	8d/	8g#/	-mi-	.
=49	=49	=49	=49	=49	=49	=49	=49	=49	=49	=49	=49	=49	=49	=49	=49	=49	=49	=49	=49	=49	=49	=49	=49	=49	=49	=49	=49
!!LO:PB:g=original
4A 4AA\	4a 4c#/	4A\	.	4AA/yy	.	4A/	.	4c#/	.	4a/	.	4a/yy	.	4r	.	4r	.	4A\	.	.	4A\	.	.	4c#/	4a/	-ni	.
!	!	!	!LO:DY:a:rj	!	!LO:DY:a:rj	!	!	!	!	!	!LO:DY:rj	!	!LO:DY:rj	!	!	!	!	!	!	!	!	!	!	!	!	!	!
4c# 4C#\	4ee 4a 4e/	8.C#/L	f	8.E\Lyy	f	8.e\L	.	8.a/L	.	8.ee\L	f	8.ee\Lyy	f	8.e 8.c#\	Be-	8.ee 8.a\	.	4r	.	.	4r	.	.	4r	4r	.	.
.	.	16C#/Jk	.	16E\Jkyy	.	16e\Jk	.	16a/Jk	.	16ee\Jk	.	16ee\Jkyy	.	16e 16c#\	-ne-	16ee 16a\	.	.	.	.	.	.	.	.	.	.	.
4B 4BB\	4dd 4f# 4d/	(4BB/	.	4D\yy	.	4d\	.	(4f#/	.	(4dd\	.	(4dd\yy	.	(4d 4B\	-di-	(>4dd 4f#/	.	2r	.	.	2r	.	.	2r	2r	.	.
4E 4EE/	4b 4g# 4e/	4E\)	.	4E\yy	.	4e\	.	4g#/	.	4b\)	.	4b\)yy	.	4e 4E\)	.	4b 4g#/)	.	.	.	.	.	.	.	.	.	.	.
=50	=50	=50	=50	=50	=50	=50	=50	=50	=50	=50	=50	=50	=50	=50	=50	=50	=50	=50	=50	=50	=50	=50	=50	=50	=50	=50	=50
*	*^	*	*	*	*	*	*	*	*	*	*	*	*	*	*	*	*	*	*	*	*	*	*	*	*	*	*
4A 4AA\	4cc# 4a/	2e\	4AA/	.	4AA/yy	.	4e\	.	4a/)	.	4cc#\	.	4cc#\yy	.	4e 4A\	-ctus	4cc# 4a/	.	1r	.	.	1r	.	.	1r	1r	.	.
4c# 4C#\	4ee 4a/	.	8.C#/L	.	8.C#/Lyy	.	8.e\L	.	8.a/L	.	8.ee\L	.	8.ee\Lyy	.	4e 4c#\	qui	4ee 4a/	.	.	.	.	.	.	.	.	.	.	.
.	.	.	16C#/Jk	.	16C#/Jkyy	.	16e\Jk	.	16a/Jk	.	16ee\Jk	.	16ee\Jkyy	.	.	.	.	.	.	.	.	.	.	.	.	.	.	.
4B 4BB\	4dd 4f# 4d/	2ryy	(4BB/	.	(4BB/yy	.	4d\	.	(4f#/	.	(4dd\	.	(4dd\yy	.	(4d 4B\	ve-	(>4dd 4f#/	.	.	.	.	.	.	.	.	.	.	.
4E 4EE/	4b 4g# 4e/	.	4E\	.	4E\yy	.	4e\	.	4g#/	.	4b\	.	4b\yy	.	4e 4E\)	.	4b 4g#/)	.	.	.	.	.	.	.	.	.	.	.
*	*v	*v	*	*	*	*	*	*	*	*	*	*	*	*	*	*	*	*	*	*	*	*	*	*	*	*	*	*
=51	=51	=51	=51	=51	=51	=51	=51	=51	=51	=51	=51	=51	=51	=51	=51	=51	=51	=51	=51	=51	=51	=51	=51	=51	=51	=51	=51
*	*	*	*	*	*	*	*	*	*	*	*	*	*	*	*	*^	*	*	*	*	*	*	*	*	*	*	*
!	!	!	!	!	!	!	!	!	!LO:DY:a	!	!	!	!	!	!	!	!	!	!	!	!	!	!	!	!	!	!	!
4A 4AA\	8.cc#L 8.a 8.e/	4AA/)	.	4AA/)yy	.	4e 4A/	.	8.a/L)	p	8.cc#\L)	.	8.cc#\L)yy	.	4e 4A\	-nit	4cc#/	4a\	.	2r	.	.	2r	.	.	8.r	8.r	.	.
.	16cc#Jk 16a/	.	.	.	.	.	.	16a/Jk	.	16cc#'\Jk	.	16cc#'\Jkyy	.	.	.	.	.	.	.	.	.	.	.	.	16a/	16cc#\	qui	.
4r	8.ddL 8.b\	4r	.	4ryy	.	4r	.	8.b\L	.	8.dd'\L	.	8.dd'\Lyy	.	4r	.	4r	4ryy	.	.	.	.	.	.	.	8.b\L	(8.dd\L	ve-	.
.	16eeJk 16cc#\	.	.	.	.	.	.	16cc#\Jk	.	16ee'\Jk	.	16ee'\Jkyy	.	.	.	.	.	.	.	.	.	.	.	.	16cc#\Jk	16ee\Jk)	.	.
8.r	4ff# 4dd\	8.r	.	8.ryy	.	8.r	.	4dd\	.	4ff#'\	.	4ff#'\yy	.	2r	.	2r	2ryy	.	8.r	.	.	8.r	.	.	4dd\	4ff#\	-nit	.
!	!	!	!LO:DY:a:rj	!	!LO:DY:a:rj	!	!LO:DY:rj	!	!	!	!	!	!	!	!	!	!	!	!	!	!	!	!	!	!	!	!	!
16f#KL 16d\	.	16d|\KL	p	16d|\KLyy	p	16f#|\KL	p	.	.	.	.	.	.	.	.	.	.	.	16d\	qui	.	16f#\	.	.	.	.	.	.
8.d 8.B\	4r	8.B|\	.	8.B|\yy	.	8.d|\	.	4r	.	4r	.	4ryy	.	.	.	.	.	.	(8.B\L	ve-	.	(8.d\L	.	.	4r	4r	.	.
16c#Jk 16A\	.	16A|\Jk	.	16A|\Jkyy	.	16c#|\Jk	.	.	.	.	.	.	.	.	.	.	.	.	16A\Jk)	.	.	16c#\Jk)	.	.	.	.	.	.
*	*	*	*	*	*	*	*	*	*	*	*	*	*	*	*	*v	*v	*	*	*	*	*	*	*	*	*	*	*
=52	=52	=52	=52	=52	=52	=52	=52	=52	=52	=52	=52	=52	=52	=52	=52	=52	=52	=52	=52	=52	=52	=52	=52	=52	=52	=52	=52
4B 4G#\	8.r	4G#\	.	4G#\yy	.	4B/	.	8.r	.	8.r	.	8.ryy	.	1r	.	1r	.	4G#\	-nit	.	4B\	.	.	8.r	8.r	.	.
.	16bKL 16g#/	.	.	.	.	.	.	16g#/KL	.	16b'\KL	.	16b'\KLyy	.	.	.	.	.	.	.	.	.	.	.	16g#/	16b\	in	.
4r	8.cc# 8.a/	4r	.	4ryy	.	4r	.	8.a/	.	8.cc#'\	.	8.cc#'\yy	.	.	.	.	.	4r	.	.	4r	.	.	8.a/	8.cc#\	no-	.
.	16ddJk 16b/	.	.	.	.	.	.	16b/Jk	.	16dd'\Jk	.	16dd'\Jkyy	.	.	.	.	.	.	.	.	.	.	.	16b/	16dd\	-mi-	.
8.r	4ee 4cc#\	8.r	.	8.ryy	.	8.r	.	4cc#\	.	4ee'\	.	4ee'\yy	.	.	.	.	.	8.r	.	.	8.r	.	.	4cc#\	4ee\	-ne	.
16eKL 16c#\	.	16c#|\KL	.	16c#|\KLyy	.	16e|/KL	.	.	.	.	.	.	.	.	.	.	.	16c#\	in	.	16e\	.	.	.	.	.	.
8.c# 8.A\	4r	8.A|\	.	8.A|\yy	.	8.c#|/	.	4r	.	4r	.	4ryy	.	.	.	.	.	8.A\	no-	.	8.c#\	.	.	4r	4r	.	.
16BJk 16G#\	.	16G#|\Jk	.	16G#|\Jkyy	.	16B|/Jk	.	.	.	.	.	.	.	.	.	.	.	16G#\	-mi-	.	16B\	.	.	.	.	.	.
=53	=53	=53	=53	=53	=53	=53	=53	=53	=53	=53	=53	=53	=53	=53	=53	=53	=53	=53	=53	=53	=53	=53	=53	=53	=53	=53	=53
!!LO:PB:g=original
*^	*^	*	*	*	*	*	*	*	*	*	*	*	*	*	*	*	*	*	*	*	*	*	*	*	*	*	*
4A/	4F#\	8.r	2ryy	4F#\	.	4F#\	.	4A/	.	8.r	.	8.r	.	8.ryy	.	1r	.	1r	.	4F#\	-ne	.	4A\	.	.	8.r	8.r	.	.
.	.	16aL 16f#/	.	.	.	.	.	.	.	16f#/KL	.	16a|/KL	.	16a|/KLyy	.	.	.	.	.	.	.	.	.	.	.	16f#/	(16a/	qui	.
4r	2.ryy	8.b 8.g#/	.	4r	.	4r	.	4r	.	8.g#/	.	8.b|/	.	8.b|/yy	.	.	.	.	.	4r	.	.	4r	.	.	8.g#/L	8.b\L	ve-	.
.	.	16cc#Jk 16a/	.	.	.	.	.	.	.	16a/Jk	.	16cc#|/Jk	.	16cc#|/Jkyy	.	.	.	.	.	.	.	.	.	.	.	16a/Jk	16cc#\Jk	.	.
8.r	.	[2dd/	2b\	8.r	.	8.r	.	8.r	.	(2b\	.	(2dd\	.	(2dd\yy	.	.	.	.	.	8.r	.	.	8.r	.	.	2b/	2dd\)	.	.
16d\L 16B\	.	.	.	16B\KL	.	16B\KL	.	16d/KL	.	.	.	.	.	.	.	.	.	.	.	16B\	qui	.	16d\	.	.	.	.	.	.
8.B\ 8.G#\	.	.	.	8.G#\	.	8.G#\	.	8.B/	.	.	.	.	.	.	.	.	.	.	.	(8.G#\L	ve-	.	(8.B\L	.	.	.	.	.	.
16A\Jk 16F#\	.	.	.	16F#\Jk	.	16F#\Jk	.	16A/Jk	.	.	.	.	.	.	.	.	.	.	.	16F#\Jk)	.	.	16A\Jk)	.	.	.	.	.	.
=54	=54	=54	=54	=54	=54	=54	=54	=54	=54	=54	=54	=54	=54	=54	=54	=54	=54	=54	=54	=54	=54	=54	=54	=54	=54	=54	=54	=54	=54
4G#/	4E#X\	4dd] 4b/	2ryy	(4E#X\	.	(4E#X\	.	(4G#/	.	4b/	.	4dd\	.	4dd\yy	.	1r	.	1r	.	4E#X\	-nit	.	4G#/	.	.	4b/	4dd\	-nit	.
!	!	!	!	!	!	!	!	!	!	!	!	!	!	!	!	!	!	!	!	!	!	!	!	!	!	!	!	!	!LO:DY:a
4A\	4F#\	4cc# 4a/	.	4F#\)	.	4F#\)	.	4A/)	.	4a/)	.	4cc#\)	<	4cc#\)yy	<	.	.	.	.	4F#\	in	.	4A/	.	.	4a/	4cc#\	in	<
2cn 2A 2D#X\	2ryy	4ff#/	2cc#\	[4D#X\	>	[4D#X\	>	[4cn/	>	[4a/	.	(4ff#\SSS	.	(4ff#\SSSyy	.	.	.	.	.	4D#X\	no-	.	4cn\	.	.	4a/	4ff#\SSS	no-	.
.	.	8gg#/L	.	8D#\L]	]	8D#\L]	]	8c/L]	]	8a/L]	.	8gg#\L	[	8gg#\Lyy	[	.	.	.	.	8D#\	-mi-	.	8c\	.	.	8a/	8gg#\	-mi-	.
.	.	8aa/J	.	8D#'\J	.	8D#'\J	.	8c'/J	.	8a'/J	.	8aa\J)	.	8aa\J)yy	.	.	.	.	.	8D#\	-ne	.	8c\	.	.	8a/	8aa\	-ne	[[
*v	*v	*	*	*	*	*	*	*	*	*	*	*	*	*	*	*	*	*	*	*	*	*	*	*	*	*	*	*	*
*	*v	*v	*	*	*	*	*	*	*	*	*	*	*	*	*	*	*	*	*	*	*	*	*	*	*	*	*	*
=55	=55	=55	=55	=55	=55	=55	=55	=55	=55	=55	=55	=55	=55	=55	=55	=55	=55	=55	=55	=55	=55	=55	=55	=55	=55	=55	=55
2c#X 2A 2E\	8aa 8cc# 8a\	4E\	.	4E\	.	4c#X/	.	4a/	.	16aa\LL	.	16aa\LLyy	.	1r;	.	1r;	.	4E\	no-	.	4c#X\	.	.	4a/	(16aa\LL	no-	.
.	.	.	.	.	.	.	.	.	.	(16cc#\	.	(16cc#\yy	.	.	.	.	.	.	.	.	.	.	.	.	16cc#\	.	.
.	8r	.	.	.	.	.	.	.	.	16dd\	.	16dd\yy	.	.	.	.	.	.	.	.	.	.	.	.	16dd\	.	.
.	.	.	.	.	.	.	.	.	.	16dd#X\JJ)	.	16dd#X\JJ)yy	.	.	.	.	.	.	.	.	.	.	.	.	16dd#X\JJ)	.	.
.	4r	8E\L	.	8E\L	.	8c#/	.	(8a/L	.	(16ff#\LL	.	(16ff#\LLyy	.	.	.	.	.	8E\	-mi-	.	8c#\	.	.	8a/	(16ff#\LL	-mi-	.
.	.	.	.	.	.	.	.	.	.	16ee\JJ)	.	16ee\JJ)yy	.	.	.	.	.	.	.	.	.	.	.	.	16ee\JJ)	.	.
.	.	8E\J	.	8E\J	.	(16e\LL	.	8e/J)	.	(16cc#/LL	.	(16cc#/LLyy	.	.	.	.	.	8E\	-ne	.	(16e\LL	.	.	8e/	(16cc#\LL	-ne	.
.	.	.	.	.	.	16c#\JJ)	.	.	.	16a/JJ)	.	16a/JJ)yy	.	.	.	.	.	.	.	.	16c#\JJ)	.	.	.	16a\JJ)	.	.
4..E;\	4..e;/	(4..E;\	.	(4..E;\	.	(4..e;\	.	4..e;/	.	(8.e/L	.	(8.e/Lyy	.	.	.	.	.	4..E;\	Do-	.	4..e;\	.	.	4..e;/	(8.e/L	Do-	.
.	.	.	.	.	.	.	.	.	.	16cc#/Jk)	.	16cc#/Jk)yy	.	.	.	.	.	.	.	.	.	.	.	.	16cc#/Jk)	.	.
.	.	.	.	.	.	.	.	.	.	8.cc#;\L	.	8.cc#;\Lyy	.	.	.	.	.	.	.	.	.	.	.	.	8.cc#;/	.	.
16E 16EE/	16g# 16e 16B/	16A\	.	16A\	.	16d\)	.	16g#/	.	16b\Jk	.	16b\Jkyy	.	.	.	.	.	16E\	-mi-	.	16d\	.	.	16g#/	16b/	-mi-	.
=56	=56	=56	=56	=56	=56	=56	=56	=56	=56	=56	=56	=56	=56	=56	=56	=56	=56	=56	=56	=56	=56	=56	=56	=56	=56	=56	=56
!	!	!	!	!	!	!	!	!	!	!	!	!	!	!	!	!	!LO:DY:a	!	!	!	!	!	!	!	!	!	!
4A 4AA\	4a 4e 4c#/	4A\)	.	4A\)	.	4c#\	.	4a/	.	4a/	.	4a/yy	.	4r	.	4r	f	4A\	-ni	.	4c#\	.	.	4a/	4a/	-ni	.
!	!	!	!LO:DY:a:rj	!	!LO:DY:a:rj	!	!LO:DY:rj	!	!	!	!LO:DY:rj	!	!LO:DY:rj	!	!	!	!	!	!	!	!	!	!	!	!	!	!
4c# 4C#\	4ee 4a 4e/	8.C#/L	f	8.C#/L	f	8.e\L	f	8.a/L	.	8.ee|\L	f	8.ee|\Lyy	f	8.e 8.c#\	Be-	8.ee 8.a/	.	4r	.	.	4r	.	.	4r	4r	.	.
.	.	16C#/Jk	.	16C#/Jk	.	16e\Jk	.	16a/Jk	.	16ee|\Jk	.	16ee|\Jkyy	.	16e 16c#\	-ne-	16ee 16a/	.	.	.	.	.	.	.	.	.	.	.
4B 4BB\	4dd 4f# 4d/	(4BB/	.	(4BB/	.	(4d\	.	(4f#/	.	(4dd\	.	(4dd\yy	.	(4d 4B\	-di-	(>4dd 4f#/	.	2r	.	.	2r	.	.	2r	2r	.	.
4E 4EE/	4b 4g# 4e/	4E\)	.	4E\)	.	4e\)	.	4g#/	.	4b\	.	4b\yy	.	4e 4E\)	.	4b 4g#/)	.	.	.	.	.	.	.	.	.	.	.
=57	=57	=57	=57	=57	=57	=57	=57	=57	=57	=57	=57	=57	=57	=57	=57	=57	=57	=57	=57	=57	=57	=57	=57	=57	=57	=57	=57
!!LO:PB:g=original
4A 4AA\	4cc# 4a 4e/	4AA/	.	4AA/	.	4e\	.	4a/)	.	4cc#\)	.	4cc#\)yy	.	4e 4A\	-ctus	4cc# 4a/	.	1r	.	.	1r	.	.	1r	1r	.	.
4c# 4C#\	4ee 4a 4e/	8.C#/L	.	8.C#/L	.	8.e\L	.	8.a/L	.	8.ee\L	.	8.ee\Lyy	.	4e\	qui	4ee 4a/	.	.	.	.	.	.	.	.	.	.	.
.	.	16C#/Jk	.	16C#/Jk	.	16e\Jk	.	16a/Jk	.	16ee\Jk	.	16ee\Jkyy	.	.	.	.	.	.	.	.	.	.	.	.	.	.	.
4B 4BB\	4dd 4f# 4d/	(4BB/	.	(4BB/	.	(4d\	.	(4f#/	.	(4dd\	.	(4dd\yy	.	4d 4B\	ve-	(>4dd 4f#/	.	.	.	.	.	.	.	.	.	.	.
4E 4EE/	4b 4g# 4e/	4E\	.	4E\	.	4e\	.	4g#/	.	4b\	.	4b\yy	.	4e 4E\	.	4b 4g#/)	.	.	.	.	.	.	.	.	.	.	.
=58	=58	=58	=58	=58	=58	=58	=58	=58	=58	=58	=58	=58	=58	=58	=58	=58	=58	=58	=58	=58	=58	=58	=58	=58	=58	=58	=58
4A/ 4AA/	8.cc#L 8.a 8.e/	4AA/)	.	4AA/)	.	4e 4A/)	.	8.a/)	.	8.cc#\)	.	8.cc#\)yy	.	4e 4A\	-nit.	4cc# 4a\	.	2r	.	.	2r	.	.	8.r	8.r	.	.
!	!	!	!	!	!	!	!	!	!	!	!LO:DY:rj	!	!LO:DY:rj	!	!	!	!	!	!	!	!	!	!	!	!	!	!
.	16cc#Jk 16a/	.	.	.	.	.	.	16a/KL	.	16cc#'\KL	p	16cc#'\KLyy	p	.	.	.	.	.	.	.	.	.	.	16a/	16cc#\	qui	.
4r	8.ddL 8.b\	4r	.	4r	.	4r	.	8.b/	.	8.dd'\	.	8.dd'\yy	.	4r	.	4r	.	.	.	.	.	.	.	8.b\L	8.dd\L	ve-	.
.	16eeJk 16cc#\	.	.	.	.	.	.	16cc#/Jk	.	16ee'\Jk	.	16ee'\Jkyy	.	.	.	.	.	.	.	.	.	.	.	16cc#\Jk	16ee\Jk	.	.
8.r	4ff# 4dd\	8.r	.	8.r	.	8.r	.	4dd\	.	4ff#'\	.	4ff#'\yy	.	2r	.	2r	.	8.r	.	.	8.r	.	.	4dd\	4ff#\	-nit	.
!	!	!	!LO:DY:a:rj	!	!LO:DY:a:rj	!	!LO:DY:rj	!	!	!	!	!	!	!	!	!	!	!	!	!	!	!	!	!	!	!	!
16f#L 16d\	.	16d|\KL	p	16d|\KL	p	16f#|\KL	p	.	.	.	.	.	.	.	.	.	.	16d\	qui	.	16f#\	.	.	.	.	.	.
8.d 8.B\	4r	8.B|\	.	8.B|\	.	8.d|\	.	4r	.	4r	.	4ryy	.	.	.	.	.	8.B\L	ve-	.	8.d\L	.	.	4r	4r	.	.
16c#Jk 16A\	.	16A|\Jk	.	16A|\Jk	.	16c#|\Jk	.	.	.	.	.	.	.	.	.	.	.	16A\Jk	.	.	16c#\Jk	.	.	.	.	.	.
=59	=59	=59	=59	=59	=59	=59	=59	=59	=59	=59	=59	=59	=59	=59	=59	=59	=59	=59	=59	=59	=59	=59	=59	=59	=59	=59	=59
*^	*^	*	*	*	*	*	*	*	*	*	*	*	*	*	*	*	*	*	*	*	*	*	*	*	*	*	*
4B/	4G#\	8.r	2ryy	4G#\	.	4G#\	.	4B/	.	8.r	.	8.r	.	8.ryy	.	1r	.	1r	.	4G#\	-nit	.	4B\	.	.	8.r	8.r	.	.
.	.	16bL 16g#/	.	.	.	.	.	.	.	16g#'/KL	.	16b'\KL	.	16b'\KLyy	.	.	.	.	.	.	.	.	.	.	.	16g#/	16b\	in	.
4r	4ryy	8.cc# 8.a/	.	4r	.	4r	.	4r	.	8.a'/	.	8.cc#'\	.	8.cc#'\yy	.	.	.	.	.	4r	.	.	4r	.	.	8.a/	8.cc#\	no-	.
.	.	16ddJk 16b/	.	.	.	.	.	.	.	16b'/Jk	.	16dd'\Jk	.	16dd'\Jkyy	.	.	.	.	.	.	.	.	.	.	.	16b/	16dd\	-mi-	.
8.r	2ryy	4ee/	4cc#\	8.r	.	8.r	.	8.r	.	4cc#'\	.	4ee'\	.	4ee'\yy	.	.	.	.	.	8.r	.	.	8.r	.	.	4cc#\	4ee\	-ne	.
16eKL 16c#\	.	.	.	16c#\KL	.	16c#\KL	.	16e\KL	.	.	.	.	.	.	.	.	.	.	.	16c#\	in	.	16e\	.	.	.	.	.	.
8.c# 8.A\	.	4r	4ryy	8.A\	.	8.A\	.	8.c#\	.	4r	.	4r	.	4ryy	.	.	.	.	.	8.A\	no-	.	8.c#\	.	.	4r	4r	.	.
16BJk 16G#\	.	.	.	16G#\Jk	.	16G#\Jk	.	16B\Jk	.	.	.	.	.	.	.	.	.	.	.	16G#\	-mi-	.	16B\	.	.	.	.	.	.
*v	*v	*	*	*	*	*	*	*	*	*	*	*	*	*	*	*	*	*	*	*	*	*	*	*	*	*	*	*	*
*	*v	*v	*	*	*	*	*	*	*	*	*	*	*	*	*	*	*	*	*	*	*	*	*	*	*	*	*	*
=60	=60	=60	=60	=60	=60	=60	=60	=60	=60	=60	=60	=60	=60	=60	=60	=60	=60	=60	=60	=60	=60	=60	=60	=60	=60	=60	=60
4A 4F#\	8.r	4F#\	.	4F#\	.	4A/	.	8.r	.	8.r	.	8.ryy	.	1r	.	1r	.	4F#\	-ne	.	4A\	.	.	8.r	8.r	.	.
.	16aL 16f#/	.	.	.	.	.	.	16f#'/KL	.	16a'/KL	.	16a'/KLyy	.	.	.	.	.	.	.	.	.	.	.	16f#/	16a/	qui	.
4r	8.b 8.g#/	4r	.	4r	.	4r	.	8.g#'/	.	8.b'/	.	8.b'/yy	.	.	.	.	.	4r	.	.	4r	.	.	8.g#/L	(8.b\L	ve-	.
.	16cc#Jk 16a/	.	.	.	.	.	.	16a'/Jk	.	16cc#'/Jk	.	16cc#'/Jkyy	.	.	.	.	.	.	.	.	.	.	.	16a/Jk	16cc#\Jk	.	.
8.r	2dd 2b/	8.r	.	8.r	.	8.r	.	[>2b/	.	(2dd\	.	(2dd\yy	.	.	.	.	.	8.r	.	.	8.r	.	.	[2b/	[2dd\)	.	.
16dKL 16B\	.	16B\KL	.	16B\KL	.	16d/KL	.	.	.	.	.	.	.	.	.	.	.	16B\	qui	.	16d\	.	.	.	.	.	.
8.B 8.G#\	.	8.G#\	.	8.G#\	.	8.B/	.	.	.	.	.	.	.	.	.	.	.	8.G#\L	ve-	.	8.B\L	.	.	.	.	.	.
16AJk 16F#\	.	16F#\Jk	.	16F#\Jk	.	16A/Jk	.	.	.	.	.	.	.	.	.	.	.	16F#\Jk	.	.	16A\Jk	.	.	.	.	.	.
=61	=61	=61	=61	=61	=61	=61	=61	=61	=61	=61	=61	=61	=61	=61	=61	=61	=61	=61	=61	=61	=61	=61	=61	=61	=61	=61	=61
!!LO:PB:g=original
*^	*	*	*	*	*	*	*	*	*	*	*	*	*	*	*	*	*	*	*	*	*	*	*	*	*	*	*
!	!	!	!	!	!	!	!	!	!LO:TX:t=P:problem=zakończenie ligatury na dole	!	!	!	!	!	!	!	!	!	!	!	!	!	!	!	!LO:TX:t=P:problem=brak zakończenia ligatury	!LO:TX:t=P:problem=brak zakończenia ligatury	!	!
4G#/	4E#X\	4dd 4b\	(4E#X\	.	(4E#X\yy	.	(4G#/	.	4b\]	.	4dd\	.	4dd\yy	.	1r	.	1r	.	4E#X\	-nit	.	4G#/	.	.	4b/]	4dd\]	-nit	.
!	!	!	!	!LO:HP:a	!	!LO:HP:a	!	!	!	!	!	!	!	!	!	!	!	!	!	!	!	!	!	!	!	!	!	!
4A/	4F#\	4cc# 4a\	4F#\)	<	4F#\)yy	<	4A/)	.	4a/	.	4cc#\)	.	4cc#\)yy	.	.	.	.	.	4F#\	in	.	4A/	.	.	4a/	4cc#\	in	.
2cn\ 2A\ 2F#\ 2D#X\	2ryy	4ff#\SSS	[4D#X\	.	[4D#X\yy	.	[4cn\	.	4a/	.	(4ff#\SSS	<	(4ff#\SSSyy	<	.	.	.	.	4D#X\	no-	.	4cn\	.	.	4a/	4ff#\SSS	no-	.
.	.	8gg#\L	8D#\L]	.	8D#\L]yy	.	8c\L]	.	8.a/L	.	8gg#\L	.	8gg#\Lyy	.	.	.	.	.	8D#\	-mi-	.	8c\	.	.	8a/	8gg#\	-mi-	.
.	.	8aa\J	8D#'\J	[[	8D#'\Jyy	[[	8c\J	.	.	.	8aa\J	[[	8aa\Jyy	[[	.	.	.	.	8D#\	-ne	.	8c\	.	.	8a/	8aa\	-ne	.
.	.	.	.	.	.	.	.	.	16a/Jk	.	.	.	.	.	.	.	.	.	.	.	.	.	.	.	.	.	.	.
*v	*v	*	*	*	*	*	*	*	*	*	*	*	*	*	*	*	*	*	*	*	*	*	*	*	*	*	*	*
=62	=62	=62	=62	=62	=62	=62	=62	=62	=62	=62	=62	=62	=62	=62	=62	=62	=62	=62	=62	=62	=62	=62	=62	=62	=62	=62	=62
!	!	!	!LO:DY:a:rj	!	!LO:DY:a:rj	!	!LO:DY:rj	!	!	!	!LO:DY:rj	!	!LO:DY:rj	!	!	!	!	!	!	!	!	!	!	!	!	!	!
4c#X 4A 4E\	4aa 4a\	8E\	f	8E\yy	f	8c#X\	f	8a 8e 8A/	.	8aa 8cc# 8e\)	f	8aayy 8cc#yy 8e\)yy	f	1r;	.	1r;	.	4E\	no-	.	4c#X\	.	.	4a/	16aa\LL	no-	.
.	.	.	.	.	.	.	.	.	.	.	.	.	.	.	.	.	.	.	.	.	.	.	.	.	(16cc#\	.	.
.	.	8r	.	8ryy	.	8r	.	8r	.	8r	.	8ryy	.	.	.	.	.	.	.	.	.	.	.	.	16dd\	.	.
.	.	.	.	.	.	.	.	.	.	.	.	.	.	.	.	.	.	.	.	.	.	.	.	.	16dd#X\JJ)	.	.
4r	4r	4r	.	4ryy	.	4r	.	4r	.	4r	.	4ryy	.	.	.	.	.	8E\	-mi-	.	8c#\	.	.	8a/	(16ff#\LL	-mi-	.
.	.	.	.	.	.	.	.	.	.	.	.	.	.	.	.	.	.	.	.	.	.	.	.	.	16ee\JJ)	.	.
.	.	.	.	.	.	.	.	.	.	.	.	.	.	.	.	.	.	8E\	-ne	.	(16e\LL	.	.	16a/LL	(16cc#\LL	-ne	.
.	.	.	.	.	.	.	.	.	.	.	.	.	.	.	.	.	.	.	.	.	16c#\JJ)	.	.	16e/JJ	16a\JJ)	.	.
!	!	!	!	!	!	!	!	!	!LO:DY:a	!	!	!	!	!	!	!	!	!	!	!	!	!	!	!	!	!	!
4r	4r	4r	.	4ryy	.	4r	.	4r	p	4r	.	4ryy	.	.	.	.	.	4..E;\	Do-	.	4..e;\	.	.	4..e;/	(8.e/L	Do-	.
.	.	.	.	.	.	.	.	.	.	.	.	.	.	.	.	.	.	.	.	.	.	.	.	.	16cc#/Jk)	.	.
4E 4EE/	4g# 4e 4d/	4E;\	p	4Eyy 4BB;/yy	.	4e 4B;\	.	4d;/	.	4g#;/	.	4g#;/yy	.	.	.	.	.	.	.	.	.	.	.	.	8.cc#;/	.	.
.	.	.	.	.	.	.	.	.	.	.	.	.	.	.	.	.	.	16E\	-mi-	.	16d\	.	.	16g#/	16b/	-mi-	.
=63	=63	=63	=63	=63	=63	=63	=63	=63	=63	=63	=63	=63	=63	=63	=63	=63	=63	=63	=63	=63	=63	=63	=63	=63	=63	=63	=63
4A 4AA\	4a 4e 4c#/	4A\	.	4A\yy	.	4e 4A\	.	4c#/	.	4a/	.	4a/yy	.	4r	.	4r	.	4A\	-ni	.	4c#\	.	.	4a/	4a/	-ni	.
!	!	!	!LO:DY:rj	!	!LO:DY:rj	!	!	!	!	!	!LO:DY:a:rj	!	!LO:DY:a:rj	!	!	!	!	!	!	!	!	!	!	!	!	!	!
4A 4AA\	4a/	8.A\L	f	8.A\Lyy	f	8.A/L	.	8.a/L	.	8.a/L	f	8.a/Lyy	f	8.A\	Be-	8.a/	.	4r	.	.	4r	.	.	4r	4r	.	.
.	.	16A\Jk	.	16A\Jkyy	.	16A/Jk	.	16a/Jk	.	16a/Jk	.	16a/Jkyy	.	16A\	-ne-	16a/	.	.	.	.	.	.	.	.	.	.	.
!	!	!	!	!	!	!	!	!LO:TX:a:t=unis	!	!	!	!	!	!	!	!	!	!	!	!	!	!	!	!	!	!	!
4c# 4C#\	4cc#/	4c#\	.	4c#\yy	.	4c#/	.	4cc#\yy	.	4cc#\	.	4cc#\yy	.	4c#\	-di-	4cc#\	.	2r	.	.	2r	.	.	2r	2r	.	.
4A 4AA\	4a/	8.A\L	.	8.A\Lyy	.	8.A/L	.	8.a/Lyy	.	8.a/L	.	8.a/Lyy	.	8.A\	-ctus	8.a/	.	.	.	.	.	.	.	.	.	.	.
.	.	16A\Jk	.	16A\Jkyy	.	16A/Jk	.	16a/Jkyy	.	16a/Jk	.	16a/Jkyy	.	16A\	qui	16a/	.	.	.	.	.	.	.	.	.	.	.
=64	=64	=64	=64	=64	=64	=64	=64	=64	=64	=64	=64	=64	=64	=64	=64	=64	=64	=64	=64	=64	=64	=64	=64	=64	=64	=64	=64
4c# 4C#\	4cc#\	4c#\	.	4c#\yy	.	4c#/	.	4cc#\yy	.	4cc#\	.	4cc#\yy	.	4c#\	ve-	4cc#\	.	1r	.	.	1r	.	.	1r	1r	.	.
4A 4AA\	4a/	8.A\L	.	8.A\Lyy	.	8.A/L	.	8.a/Lyy	.	8.a/L	.	8.a/Lyy	.	8.A\	-nit	8.a/	.	.	.	.	.	.	.	.	.	.	.
.	.	16A\Jk	.	16A\Jkyy	.	16A/Jk	.	16a/Jkyy	.	16a/Jk	.	16a/Jkyy	.	16A\	in	16a/	.	.	.	.	.	.	.	.	.	.	.
8c#L 8C#\	8cc#\L	8c#\L	.	8c#\Lyy	.	8c#/L	.	8cc#/Lyy	.	8cc#/L	.	8cc#/Lyy	.	8c#\	no-	8cc#\	.	.	.	.	.	.	.	.	.	.	.
8A 8AA\	8a\	16A\L	.	16A\Lyy	.	16A/L	.	16a/Lyy	.	16a/L	.	16a/Lyy	.	16A\	-mi-	16a/	.	.	.	.	.	.	.	.	.	.	.
.	.	16A\JJ	.	16A\JJyy	.	16A/JJ	.	16a/JJyy	.	16a/JJ	.	16a/JJyy	.	16A\	-ne	16a/	.	.	.	.	.	.	.	.	.	.	.
8c# 8C#\	8cc#\	8c#\L	.	8c#\Lyy	.	8c#/L	.	8cc#\Lyy	.	8cc#\L	.	8cc#\Lyy	.	8c#\	do-	8cc#\	.	.	.	.	.	.	.	.	.	.	.
8eJ 8E\	8ee\J	8e\J	.	8e\Jyy	.	8e/J	.	8ee\Jyy	.	8ee\J	.	8ee\Jyy	.	8e\	-mi-	8ee\	.	.	.	.	.	.	.	.	.	.	.
=65	=65	=65	=65	=65	=65	=65	=65	=65	=65	=65	=65	=65	=65	=65	=65	=65	=65	=65	=65	=65	=65	=65	=65	=65	=65	=65	=65
!!LO:PB:g=original
*	*	*	*	*	*	*	*	*^	*	*	*	*	*	*	*	*	*	*	*	*	*	*	*	*	*	*	*
4A 4AA\	4aa 4a\	4A\	.	4A\yy	.	4A/	.	4a/	4ryy	.	4a/	.	4a/yy	.	4A\	-ni.	4a/	.	4r	.	.	4r	.	.	4r	4r	.	.
4F# 4FF#/	4cc# 4a/	4F#^\	.	4F#^\yy	.	4c#/	.	4a/	4a^\	.	4cc#^<\	.	4cc#^<\yy	.	4r	.	4r	.	4F#\	in	.	4c#\	.	.	4a/	4cc#^\	in	.
4E 4EE/	4aa 4cc# 4a/	4E^\	.	4E^\yy	.	4c#/	.	4a/	4a^\	.	4aa 4a^<\	.	4aayy 4a^<\yy	.	2r	.	2r	.	4E\	no-	.	4c#\	.	.	4a/	4aa^\	no-	.
4D#X 4DD#X/	4ff#|\ 4ccn\ 4a\	4D#X^\	.	4D#X^\yy	.	4cn/	.	4a/	4a^\	.	4ff# 4a^<\	.	4ff#yy 4a^<\yy	.	.	.	.	.	4D#X\	-mi-	.	4cn\	.	.	4a/	4ff#^\	-mi-	.
=66	=66	=66	=66	=66	=66	=66	=66	=66	=66	=66	=66	=66	=66	=66	=66	=66	=66	=66	=66	=66	=66	=66	=66	=66	=66	=66	=66	=66
*	*	*	*	*	*	*	*	*	*	*	*	*	*	*	*	*	*	*	*	*	*	*	*	*	*	*^	*	*
!	!	!	!	!	!	!	!	!	!	!	!	!	!	!	!LO:N:vis=1	!	!LO:N:vis=1	!	!	!	!	!	!	!	!	!	!	!	!
8E 8EE/	8ee 8cc#X 8a\	8E\	.	8E\yy	.	8c#X/	.	8a/	8a\	.	8ee 8a\	.	8eeyy 8a\yy	.	1..r;	.	1..r;	.	8E\	-ne	.	8c#X\	.	.	8a/	(24ee\LL	1ryy	-ne	.
.	.	.	.	.	.	.	.	.	.	.	.	.	.	.	.	.	.	.	.	.	.	.	.	.	.	24gg#X\	.	.	.
.	.	.	.	.	.	.	.	.	.	.	.	.	.	.	.	.	.	.	.	.	.	.	.	.	.	24aa\	.	.	.
8r	8r	8r	.	8ryy	.	8r	.	8r	8ryy	.	8r	.	8ryy	.	.	.	.	.	8r	.	.	8r	.	.	8r	24dd#X\	.	.	.
.	.	.	.	.	.	.	.	.	.	.	.	.	.	.	.	.	.	.	.	.	.	.	.	.	.	24ee\	.	.	.
.	.	.	.	.	.	.	.	.	.	.	.	.	.	.	.	.	.	.	.	.	.	.	.	.	.	24b#X\JJ	.	.	.
4r	4r	4r	.	4ryy	.	4r	.	4r	2ryy	.	4r	.	4ryy	.	.	.	.	.	4r	.	.	4r	.	.	4r	24cc#/LL	.	.	.
.	.	.	.	.	.	.	.	.	.	.	.	.	.	.	.	.	.	.	.	.	.	.	.	.	.	24b#/	.	.	.
.	.	.	.	.	.	.	.	.	.	.	.	.	.	.	.	.	.	.	.	.	.	.	.	.	.	24cc#/	.	.	.
.	.	.	.	.	.	.	.	.	.	.	.	.	.	.	.	.	.	.	.	.	.	.	.	.	.	24g#/	.	.	.
.	.	.	.	.	.	.	.	.	.	.	.	.	.	.	.	.	.	.	.	.	.	.	.	.	.	24a/	.	.	.
.	.	.	.	.	.	.	.	.	.	.	.	.	.	.	.	.	.	.	.	.	.	.	.	.	.	24f#/JJ	.	.	.
2ryy	2ryy	2ryy	.	2ryy	.	2ryy	.	2ryy	.	.	2ryy	.	2ryy	.	.	.	.	.	2ryy	.	.	2ryy	.	.	2ryy	8e;/)	.	.	.
!	!	!	!	!	!	!	!	!	!	!	!	!	!	!	!	!	!	!	!	!	!	!	!	!	!	!LO:TUP:b	!	!	!
.	.	.	.	.	.	.	.	.	.	.	.	.	.	.	.	.	.	.	.	.	.	.	.	.	.	(24g#/LL	.	.	.
.	.	.	.	.	.	.	.	.	.	.	.	.	.	.	.	.	.	.	.	.	.	.	.	.	.	24b#/	.	.	.
.	.	.	.	.	.	.	.	.	.	.	.	.	.	.	.	.	.	.	.	.	.	.	.	.	.	24dd#/JJ	.	.	.
.	.	.	.	.	.	.	.	.	1ryy	.	.	.	.	.	.	.	.	.	.	.	.	.	.	.	.	4ff#/)	.	.	.
4ryy	4ryy	4ryy	.	4ryy	.	4ryy	.	4ryy	.	.	4ryy	.	4ryy	.	.	.	.	.	4ryy	.	.	4ryy	.	.	4ryy	4ffn/	4ryy	.	.
4r;	4r;	4r;	.	4r;yy	.	4r;	.	4r;	.	.	4r;	.	4r;yy	.	.	.	.	.	8r;	.	.	8r;	.	.	8r;	8ee;/	8ee\	.	.
.	.	.	.	.	.	.	.	.	.	.	.	.	.	.	.	.	.	.	8r	.	.	8r	.	.	8r	16r	8ryy	.	.
.	.	.	.	.	.	.	.	.	.	.	.	.	.	.	.	.	.	.	.	.	.	.	.	.	.	16e/	.	Do-	.
!	!	!	!	!	!	!	!	!	!	!	!	!LO:DY:rj	!	!LO:DY:rj	!	!	!	!	!	!	!	!	!	!	!	!	!	!	!
4E 4EE;/	4g# 4e 4d;/	4E;\	.	4E;yy	.	4e 4B;\	.	4d;/	.	.	4g#;/	p	4g#;/yy	p	.	.	.	.	8.E;\	Do-	.	8.d;\	.	.	8.g#;</	8.cc#;|/L	4ryy	.	.
.	.	.	.	.	.	.	.	.	.	.	.	.	.	.	.	.	.	.	16E\	-mi-	.	16d\	.	.	16g#/	16b#|/Jk	.	-mi-	.
*	*	*	*	*	*	*	*	*v	*v	*	*	*	*	*	*	*	*	*	*	*	*	*	*	*	*	*v	*v	*	*
=67||	=67||	=67||	=67||	=67||	=67||	=67||	=67||	=67||	=67||	=67||	=67||	=67||	=67||	=67||	=67||	=67||	=67||	=67||	=67||	=67||	=67||	=67||	=67||	=67||	=67||	=67||	=67||
!!LO:PB:g=original
!!!OMD: Allegretto.
*k[f#c#]	*k[f#c#]	*k[f#c#]	*	*k[f#c#]	*	*k[f#c#]	*	*k[f#c#]	*	*k[f#c#]	*	*k[f#c#]	*	*k[f#c#]	*	*k[f#c#]	*	*k[f#c#]	*	*	*k[f#c#]	*	*	*k[f#c#]	*k[f#c#]	*	*
*M6/8	*M6/8	*M6/8	*	*M6/8	*	*M6/8	*	*M6/8	*	*M6/8	*	*M6/8	*	*M6/8	*	*M6/8	*	*M6/8	*	*	*M6/8	*	*	*M6/8	*M6/8	*	*
!	!	!	!	!	!	!	!	!	!	!	!	!	!	!	!	!	!	!	!	!	!	!	!	!	!LO:TX:t=P:problem=w tym miejscu zmienia się skład wykonawczy. Soliści i chórzyści przechodzą znów (tak jak w poprzednich częściach) w jedno, i znikają skrzypce solo i wiolonczela	!	!
!	!	!	!	!	!	!	!	!	!	!	!	!	!	!	!	!	!	!	!	!	!	!	!	!	!.	!	!
4A 4AA\	4a 4e 4c#/	4AA/	.	2.ryy	.	4e 4A\	.	4c#/	.	4a/	.	2.ryy	.	2.ryy	.	2.ryy	.	4A\	-ni.	.	4c#\	.	.	4a/	4a/	-ni	.
!	!	!	!LO:DY:a:rj	!	!	!	!	!	!	!	!LO:DY:rj	!	!	!	!	!	!	!	!	!	!	!	!	!	!	!	!
8A\	8a/	8A\	f	.	.	8a\	.	8a/	.	8a/	f	.	.	.	.	.	.	8r	.	.	8r	.	.	8r	8r	.	.
4G\	4gn/	4Gn\	.	.	.	4g\	.	4g/	.	4gn/	.	.	.	.	.	.	.	4r	.	.	4r	.	.	4r	4r	.	.
8A\	8a/	8A\	.	.	.	8a\	.	8a/	.	8a/	.	.	.	.	.	.	.	8r	.	.	8r	.	.	8r	8r	.	.
=68	=68	=68	=68	=68	=68	=68	=68	=68	=68	=68	=68	=68	=68	=68	=68	=68	=68	=68	=68	=68	=68	=68	=68	=68	=68	=68	=68
4F#\	4f#/	4F#\	.	2.ryy	.	4f#\	.	4f#/	.	4f#/	.	2.ryy	.	2.ryy	.	2.ryy	.	4r	.	.	4r	.	.	4r	4r	.	.
8A\	8a/	8A\	.	.	.	8a\	.	8a/	.	8a/	.	.	.	.	.	.	.	8r	.	.	8r	.	.	8r	8r	.	.
!	!	!	!	!	!	!	!	!	!	!	!	!	!	!	!	!	!	!	!	!	!	!	!	!	!LO:TX:a:t=tutti	!	!
4E\	4e/	4E\	.	.	.	4e\	.	4e/	.	4e/	.	.	.	.	.	.	.	4r	.	.	4r	.	.	4r	4r	.	.
!	!	!	!	!	!	!	!	!	!	!	!	!	!	!	!	!	!	!	!	!LO:DY:a:rj	!	!	!	!	!	!	!LO:DY:a:rj
8A\	8a/	8A\	.	.	.	8a\	.	8a/	.	8a/	.	.	.	.	.	.	.	8A\	O-	f	8A\	.	.	8a/	8a/	O-	f
=69	=69	=69	=69	=69	=69	=69	=69	=69	=69	=69	=69	=69	=69	=69	=69	=69	=69	=69	=69	=69	=69	=69	=69	=69	=69	=69	=69
*^	*	*	*	*	*	*	*	*	*	*	*	*	*	*	*	*	*	*	*	*	*	*	*	*	*	*	*
4.A\	4.D\	4dd 4f# 4d/	4D\	.	2.ryy	.	4A/	.	4f#/	.	4dd\	.	2.ryy	.	2.ryy	.	2.ryy	.	4D\	-san-	.	4d 4A\	.	.	4f#/	4dd\	-san-	.
.	.	8f# 8d/	8D\	.	.	.	8A/	.	8d/	.	8f#/	.	.	.	.	.	.	.	8D\	-na	.	8d 8A\	.	.	8d/	8a/	-na	.
*	*	*	*tremolo	*	*	*	*	*	*	*	*	*	*	*	*	*	*	*	*	*	*	*	*	*	*	*	*	*
8BL 8G/	4.D\	8bL 8g/	8D\L	.	.	.	(8B/L	.	(8g/L	.	(8b/L	.	.	.	.	.	.	.	4D\	in	.	8BL 8G/	.	.	8g/L	8b/L	in	.
8A 8F#/	.	8a 8f#/	8D\	.	.	.	8A/)	.	8f#/)	.	8a/)	.	.	.	.	.	.	.	.	.	.	8AJ 8F#/	.	.	8f#/J	8a/J	.	.
8G#XJ 8E#X/	.	8g#XJ 8e#X/	8D\J	.	.	.	8G#X'/J	.	8e#X'/J	.	8g#X'/J	.	.	.	.	.	.	.	8D\	ex-	.	8G#X 8E#X/	.	.	8e#X/	8g#X/	ex-	.
=70	=70	=70	=70	=70	=70	=70	=70	=70	=70	=70	=70	=70	=70	=70	=70	=70	=70	=70	=70	=70	=70	=70	=70	=70	=70	=70	=70	=70
4.A 4.F#/	4.D\	4.a 4.f#/	8D\L	.	2.ryy	.	4.A/	.	(4.f#/	.	(4.a/	.	2.ryy	.	2.ryy	.	2.ryy	.	4.D\	-cel-	.	4.A 4.F#/	.	.	4.f#/	4.a/	-cel-	.
.	.	.	8F#\	.	.	.	.	.	.	.	.	.	.	.	.	.	.	.	.	.	.	.	.	.	.	.	.	.
.	.	.	8A\J	.	.	.	.	.	.	.	.	.	.	.	.	.	.	.	.	.	.	.	.	.	.	.	.	.
8A 8F# 8D\	8ryy	8f# 8d/	8D\	.	.	.	8A/	.	8d/)	.	8f#/)	.	.	.	.	.	.	.	8D\	-sis	.	8A 8F#/	.	.	8d/	8f#/	-sis	.
!	!	!	!	!LO:DY:a:rj	!	!	!	!	!	!	!	!LO:DY:rj	!	!	!	!	!	!	!	!	!	!	!	!	!	!LO:TX:a:t=Solo	!	!
*	*	*	*Xtremolo	*	*	*	*	*	*	*	*	*	*	*	*	*	*	*	*	*	*	*	*	*	*	*	*	*
8AL 8D\	4ryy	8ddL 8f#/	8D/L	p	.	.	8A/L	.	8f#/L	.	8dd\L	p	.	.	.	.	.	.	8D\	in	.	8A/	.	.	8f#/	8dd\	in	.
8AJ 8D\	.	8ddJ 8f#/	8D/J	.	.	.	8A/J	.	8f#/J	.	8dd\J	.	.	.	.	.	.	.	8D\	ex-	.	8A/	.	.	8f#/	8dd\	ex-	.
*v	*v	*	*	*	*	*	*	*	*	*	*	*	*	*	*	*	*	*	*	*	*	*	*	*	*	*	*	*
=71	=71	=71	=71	=71	=71	=71	=71	=71	=71	=71	=71	=71	=71	=71	=71	=71	=71	=71	=71	=71	=71	=71	=71	=71	=71	=71	=71
!!LO:LB:g=original
(4.A 4.AA/	4.cc# 4.e/	4AA/	.	2.ryy	.	4A/	.	4e/	.	4cc#\	.	2.ryy	.	2.ryy	.	2.ryy	.	4AA/	-cel-	.	4A\	.	.	4e/	4cc#\	-cel-	.
.	.	8AA/	.	.	.	8A/	.	8e/	.	8cc#\	.	.	.	.	.	.	.	8AA/	-sis	.	8A\	.	.	8e/	8cc#\	-sis	.
4.A 4.D\)	8.dd/L 8.f#/	4D/	.	.	.	4A/	.	8.f#/L	.	8.dd\L	.	.	.	.	.	.	.	4.D\	De-	.	4.A\	.	.	8.f#/L	8.dd\L	De-	.
.	16ee/K 16g/	.	.	.	.	.	.	16g/K	.	16ee\K	.	.	.	.	.	.	.	.	.	.	.	.	.	16g/K	16ee\K	.	.
.	8dd/J 8f#/	8D/	.	.	.	8A/	.	8f#/J	.	8dd\J	.	.	.	.	.	.	.	.	.	.	.	.	.	8f#/J	8dd\J	.	.
=72	=72	=72	=72	=72	=72	=72	=72	=72	=72	=72	=72	=72	=72	=72	=72	=72	=72	=72	=72	=72	=72	=72	=72	=72	=72	=72	=72
!	!	!	!	!	!	!	!	!LO:N:vis=16.	!	!	!	!	!	!	!	!	!	!	!	!	!	!	!	!	!	!	!
[4.A [>4.AA\	[4.cc# [>4.e/	8.AA\L	.	2.ryy	.	8.A\L	.	8.e/L	.	8.cc#\L	.	2.ryy	.	2.ryy	.	2.ryy	.	[4.AA/	-o	.	[4.A\	.	.	[4.e/	[4.cc#\	-o	.
.	.	(16A\L	.	.	.	(16a\L	.	(<16c#/L	.	(16a\L	.	.	.	.	.	.	.	.	.	.	.	.	.	.	.	.	.
.	.	16E\	.	.	.	16e\	.	16e/	.	16cc#\	.	.	.	.	.	.	.	.	.	.	.	.	.	.	.	.	.
.	.	16C#\JJ	.	.	.	16c#\JJ	.	16a/JJ	.	16ee\JJ	.	.	.	.	.	.	.	.	.	.	.	.	.	.	.	.	.
4A] 4AA\]	4cc#] 4e/]	4AA/)	.	.	.	4A/)	.	4cc#\)	.	4aa\)	.	.	.	.	.	.	.	4AA/]	.	.	4A\]	.	.	4e/]	4cc#\]	.	.
!	!	!	!LO:DY:a:rj	!	!	!	!	!	!	!	!LO:DY:rj	!	!	!	!	!	!	!	!	!LO:DY:a:rj	!	!	!	!	!LO:TX:a:i:t=tutti	!	!LO:DY:a:rj
8A\	8a/	8A\	f	.	.	8A/	.	8a/	.	8a/	f	.	.	.	.	.	.	8A\	O-	f	8A\	.	.	8a/	8a/	O-	f
=73	=73	=73	=73	=73	=73	=73	=73	=73	=73	=73	=73	=73	=73	=73	=73	=73	=73	=73	=73	=73	=73	=73	=73	=73	=73	=73	=73
*^	*	*	*	*	*	*	*	*	*	*	*	*	*	*	*	*	*	*	*	*	*	*	*	*	*	*	*
4.A\	4.D\	4dd 4f#/	4D\	.	2.ryy	.	4A/	.	4f#/	.	4dd\	.	2.ryy	.	2.ryy	.	2.ryy	.	4D\	-san-	.	4d 4A\	.	.	4f#/	4dd\	-san-	.
.	.	8f# 8d/	8D\	.	.	.	8A/	.	8d/	.	8f#/	.	.	.	.	.	.	.	8D\	-na	.	8d 8A\	.	.	8d/	8f#/	-na	.
*	*	*	*tremolo	*	*	*	*	*	*	*	*	*	*	*	*	*	*	*	*	*	*	*	*	*	*	*	*	*
8BL 8G/	4.D\	8bL 8g/	8D\L	.	.	.	(8B/L	.	(8g/L	.	(8b/L	.	.	.	.	.	.	.	4D\	in	.	8BL 8G/	.	.	8g/L	8b/L	in	.
8A 8F#/	.	8a 8f#/	8D\	.	.	.	8A/)	.	8f#/)	.	8a/)	.	.	.	.	.	.	.	.	.	.	8AJ 8F#/	.	.	8f#/J	8a/J	.	.
8G#XJ 8E#X/	.	8g#XJ 8e#X/	8D\J	.	.	.	8G#X'/J	.	8e#X'/J	.	8g#X'/J	.	.	.	.	.	.	.	8D\	ex-	.	8G#X 8E#X/	.	.	8e#X/	8g#X/	ex-	.
=74	=74	=74	=74	=74	=74	=74	=74	=74	=74	=74	=74	=74	=74	=74	=74	=74	=74	=74	=74	=74	=74	=74	=74	=74	=74	=74	=74	=74
[4.A [4.F#/	[4.D\	4.a 4.f#/	8D\L	.	2.ryy	.	(4.A/	.	(4.f#/	.	(4.a/	.	2.ryy	.	2.ryy	.	2.ryy	.	4.D\	-cel-	.	4.A 4.F#/	.	.	4.f#/	4.a/	-cel-	.
.	.	.	8F#\	.	.	.	.	.	.	.	.	.	.	.	.	.	.	.	.	.	.	.	.	.	.	.	.	.
.	.	.	8A\J	.	.	.	.	.	.	.	.	.	.	.	.	.	.	.	.	.	.	.	.	.	.	.	.	.
8A] 8F#] 8D\]	8ryy	8f# 8d/	8D\	.	.	.	8A/)	.	8d/)	.	8f#/)	.	.	.	.	.	.	.	8D\	-sis	.	8A 8F#/	.	.	8d/	8f#/	-sis	.
*	*	*	*Xtremolo	*	*	*	*	*	*	*	*	*	*	*	*	*	*	*	*	*	*	*	*	*	*	*	*	*
!	!	!	!	!LO:DY:a:rj	!	!	!	!	!	!	!	!LO:DY:rj	!	!	!	!	!	!	!	!	!	!	!	!	!	!LO:TX:a:i:t=Solo	!	!
4A 4D\	4ryy	4dd 4f# 4d/	8D\L	p	.	.	8A/L	.	8f#/L	.	8dd\L	p	.	.	.	.	.	.	8D\	in	.	8A\	.	.	8f#/	8dd\	in	.
.	.	.	8D\J	.	.	.	8A/J	.	8f#/J	.	8dd\J	.	.	.	.	.	.	.	8D\	ex-	.	8A\	.	.	8f#/	8dd\	ex-	.
*v	*v	*	*	*	*	*	*	*	*	*	*	*	*	*	*	*	*	*	*	*	*	*	*	*	*	*	*	*
=75	=75	=75	=75	=75	=75	=75	=75	=75	=75	=75	=75	=75	=75	=75	=75	=75	=75	=75	=75	=75	=75	=75	=75	=75	=75	=75	=75
!!LO:PB:g=original
*	*^	*	*	*	*	*	*	*	*	*	*	*	*	*	*	*	*	*	*	*	*	*	*	*	*	*	*
4.G 4.GG\	4.b 4.g/ 4.d	4.ryy	4G\	.	2.ryy	.	4B/	.	4g/	.	4b\	.	2.ryy	.	2.ryy	.	2.ryy	.	4G\	-cel-	.	4B\	.	.	4g/	4b\	-cel-	.
.	.	.	8G\	.	.	.	8d\	.	8g/	.	8b\	.	.	.	.	.	.	.	8G\	-sis	.	8d\	.	.	8g/	8b\	-sis	.
4.A 4.AA\	8aL 8f#/	8d\L	4A\	.	.	.	(8d\L	.	(8f#/L	.	(8a\L	.	.	.	.	.	.	.	[4A\	De-	.	8d\L	.	.	(8f#/L	(8a\L	De-	.
.	8b 8g#X/	8fn\	.	.	.	.	8fn\	.	8g#X/	.	8b\	.	.	.	.	.	.	.	.	.	.	8fn\	.	.	8g#X/	8b\	.	.
.	8cc#J 8gn/	8e\J	8AA/	.	.	.	8e\J	.	8gn/J	.	8cc#\J	.	.	.	.	.	.	.	8A] 8AA\	.	.	8e\J	.	.	8gn/J	8cc#\J	.	.
*	*v	*v	*	*	*	*	*	*	*	*	*	*	*	*	*	*	*	*	*	*	*	*	*	*	*	*	*	*
=76	=76	=76	=76	=76	=76	=76	=76	=76	=76	=76	=76	=76	=76	=76	=76	=76	=76	=76	=76	=76	=76	=76	=76	=76	=76	=76	=76
!	!	!	!	!	!	!LO:TX:t=P:problem=brak zakończenia łuku	!	!LO:TX:t=P:problem=brak zakończenia łuku	!	!LO:TX:t=P:problem=brak zakończenia łuku	!	!	!	!	!	!	!	!	!	!	!	!	!	!LO:TX:t=P:problem=brak zakończenia łuku	!LO:TX:t=P:problem=brak zakończenia łuku	!	!
4A 4D\	4dd 4f# 4d/	4D\	.	2.ryy	.	4d\)	.	4f#/)	.	4dd\)	.	2.ryy	.	2.ryy	.	2.ryy	.	4A 4D\	-o	.	4d\	.	.	4f#/)	4dd\)	-o.	.
8r	8r	8r	.	.	.	8r	.	8r	.	8r	.	.	.	.	.	.	.	8r	.	.	8r	.	.	8r	8r	.	.
!	!	!	!	!	!	!	!	!	!	!	!LO:DY:a	!	!	!	!	!	!	!	!	!LO:DY:rj	!	!	!	!LO:N:vis=4	!LO:TX:i:a:t=tutti	!	!LO:DY:a:rj
4.G 4.GG/	4.b 4.g 4.d/	4.G\	.	.	.	[4.d\	f	[4.g/	.	4.b\	f	.	.	.	.	.	.	(4.G\	A-	f	[4.d\	.	.	[4.g/	4.b\	A-	f
=77	=77	=77	=77	=77	=77	=77	=77	=77	=77	=77	=77	=77	=77	=77	=77	=77	=77	=77	=77	=77	=77	=77	=77	=77	=77	=77	=77
*	*^	*	*	*	*	*	*	*	*	*	*	*	*	*	*	*	*	*	*	*	*	*	*	*	*	*	*
4.B 4.BB\	4.g/	2.d\	4.B\	.	2.ryy	.	4.d\]	.	4.g/]	.	4.g/	.	2.ryy	.	2.ryy	.	2.ryy	.	4.B\	.	.	2.d\]	.	.	2.g/]	(4.g/	.	.
4.G 4.GG/	4.b 4.g/	.	4.G\	.	.	.	4.d\	.	4.g/	.	4.b/	.	.	.	.	.	.	.	4.G\)	.	.	.	.	.	.	4.b/	.	.
*	*v	*v	*	*	*	*	*	*	*	*	*	*	*	*	*	*	*	*	*	*	*	*	*	*	*	*	*	*
=78	=78	=78	=78	=78	=78	=78	=78	=78	=78	=78	=78	=78	=78	=78	=78	=78	=78	=78	=78	=78	=78	=78	=78	=78	=78	=78	=78
*	*	*^	*	*	*	*	*	*	*	*	*	*	*	*	*	*	*	*	*	*	*	*	*	*	*	*	*
*	*	*tremolo	*	*	*	*	*tremolo	*	*tremolo	*	*tremolo	*	*	*	*	*	*	*	*	*	*	*	*	*	*	*	*	*
2.A 2.D\	2.dd 2.f# 2.d/	32D\LLL	4.ryy	.	2.ryy	.	32d\LLL	.	32f#/LLL	.	32dd\LLL	.	2.ryy	.	2.ryy	.	2.ryy	.	2.D\	-men.	.	2.d\	.	.	2.f#/	2.dd\)	-men.	.
.	.	32D\	.	.	.	.	32d\	.	32f#/	.	32dd\	.	.	.	.	.	.	.	.	.	.	.	.	.	.	.	.	.
.	.	32D\	.	.	.	.	32d\	.	32f#/	.	32dd\	.	.	.	.	.	.	.	.	.	.	.	.	.	.	.	.	.
.	.	32D\	.	.	.	.	32d\	.	32f#/	.	32dd\	.	.	.	.	.	.	.	.	.	.	.	.	.	.	.	.	.
.	.	32D\	.	.	.	.	32d\	.	32f#/	.	32dd\	.	.	.	.	.	.	.	.	.	.	.	.	.	.	.	.	.
.	.	32D\	.	.	.	.	32d\	.	32f#/	.	32dd\	.	.	.	.	.	.	.	.	.	.	.	.	.	.	.	.	.
.	.	32D\	.	.	.	.	32d\	.	32f#/	.	32dd\	.	.	.	.	.	.	.	.	.	.	.	.	.	.	.	.	.
.	.	32D\	.	.	.	.	32d\	.	32f#/	.	32dd\	.	.	.	.	.	.	.	.	.	.	.	.	.	.	.	.	.
.	.	32D\	.	.	.	.	32d\	.	32f#/	.	32dd\	.	.	.	.	.	.	.	.	.	.	.	.	.	.	.	.	.
.	.	32D\	.	.	.	.	32d\	.	32f#/	.	32dd\	.	.	.	.	.	.	.	.	.	.	.	.	.	.	.	.	.
.	.	32D\	.	.	.	.	32d\	.	32f#/	.	32dd\	.	.	.	.	.	.	.	.	.	.	.	.	.	.	.	.	.
.	.	32D\JJJ	.	.	.	.	32d\JJJ	.	32f#/JJJ	.	32dd\JJJ	.	.	.	.	.	.	.	.	.	.	.	.	.	.	.	.	.
*	*	*Xtremolo	*	*	*	*	*	*	*	*	*	*	*	*	*	*	*	*	*	*	*	*	*	*	*	*	*	*
.	.	4D\	4ryy	.	.	.	4d\	.	4f#/	.	4dd\	.	.	.	.	.	.	.	.	.	.	.	.	.	.	.	.	.
*	*	*clefC4	*	*	*	*	*	*	*	*	*	*	*	*	*	*	*	*	*	*	*	*	*	*	*	*	*	*
!	!	!	!	!	!	!	!	!	!	!	!	!LO:DY:rj	!	!	!	!	!	!	!	!	!	!	!	!	!	!	!	!
.	.	8d/	8rD	.	.	.	8dd\	.	8dd\	.	8dd\	p	.	.	.	.	.	.	.	.	.	.	.	.	.	.	.	.
*clefG2	*	*	*	*	*	*	*	*	*	*	*	*	*	*	*	*	*	*	*	*	*	*	*	*	*	*	*	*
=79	=79	=79	=79	=79	=79	=79	=79	=79	=79	=79	=79	=79	=79	=79	=79	=79	=79	=79	=79	=79	=79	=79	=79	=79	=79	=79	=79	=79
*	*^	*	*	*	*	*	*	*	*	*	*	*	*	*	*	*	*	*	*	*	*	*	*	*	*	*	*	*
4.b/	4.gg/	2.dd\	4.b/	2.rD	.	2.ryy	.	4.dd\	.	4.gg\	.	4.gg\	.	2.ryy	.	2.ryy	.	2.ryy	.	2.r	.	.	2.r	.	.	2.r	2.r	.	.
4.g/	4.bb/	.	4.g/	.	.	.	.	4.dd\	.	4.gg\	.	4.bb\	.	.	.	.	.	.	.	.	.	.	.	.	.	.	.	.	.
*	*v	*v	*	*	*	*	*	*	*	*	*	*	*	*	*	*	*	*	*	*	*	*	*	*	*	*	*	*	*
=80	=80	=80	=80	=80	=80	=80	=80	=80	=80	=80	=80	=80	=80	=80	=80	=80	=80	=80	=80	=80	=80	=80	=80	=80	=80	=80	=80	=80
2.a 2.f# 2.d;/	2.ddd 2.ff# 2.dd;\	2.d;/	2.r;D	.	2.ryy	.	2.dd;\	.	2.ff#;\	.	2.ddd;\	.	2.ryy	.	2.ryy	.	2.ryy	.	2.r;	.	.	2.r;	.	.	2.r;	2.r;	.	.
*	*	*v	*v	*	*	*	*	*	*	*	*	*	*	*	*	*	*	*	*	*	*	*	*	*	*	*	*	*
==	==	==	==	==	==	==	==	==	==	==	==	==	==	==	==	==	==	==	==	==	==	==	==	==	==	==	==
*-	*-	*-	*-	*-	*-	*-	*-	*-	*-	*-	*-	*-	*-	*-	*-	*-	*-	*-	*-	*-	*-	*-	*-	*-	*-	*-	*-
!!!EED: Andrzej Borzym
!!!EEV: 2021-04-29
!!!RDF**kern: > = above
!!!RDF**kern: < = below
!!!RDF**kern: | = vertical stroke
!!!ENC: Andrzej Gręziak
!!!END: 2021-04-13
!!!YEC: Copyright 2022 Narodowy Instytut Fryderyka Chopina (https://polishscores.org)
!!!YEM: License CC-BY-4.0 (https://creativecommons.org/licenses/by/4.0)
